(Generated by PartKam Version 0.05)

G21 G90 G40

(follow path 1)
G0 Z5
T0 M6
G17
M3
G0 X4.5642131979695435 Y358.2715736040609 F20
G1 Z-0.25 F0.33
G1 X4.563451776649746 Y4.675126903553299 F20
G1 X358.14974619289336 Y4.675126903553299
G1 X358.14974619289336 Y358.2715736040609
G1 X216.6751269035533 Y358.2715736040609
G3 X216.5736040609137 Y356.81218274111677 I44.824873096446694 J-3.8604060913705585
G3 X216.44162436548226 Y353.9238578680203 I175.38578680203045 J-9.378172588832488
G2 X216.4314720812183 Y353.64720812182736 I-1531.2487309644669 J56.629441624365484
G2 X216.4263959390863 Y353.510152284264 I-369.9568527918782 J13.748730964467004
G3 X216.45685279187816 Y353.2715736040609 I0.7106598984771574 J-0.027918781725888325
G3 X216.5456852791878 Y353.1269035532995 I0.33248730964467005 J0.10406091370558375
G3 X216.6802030456853 Y353.0431472081218 I0.2563451776649746 J0.25888324873096447
G3 X216.90609137055839 Y353 I0.25380710659898476 J0.7131979695431472
G3 X217.3223350253807 Y353.0456852791878 I0.053299492385786795 J1.4619289340101524
G3 X218.14974619289342 Y353.3197969543147 I-1.5659898477157361 J6.088832487309644
G3 X219.11675126903555 Y353.77157360406096 I-4.220812182741117 J10.263959390862944
G3 X221.2690355329949 Y354.9695431472081 I-27.550761421319798 J52.09390862944162
G2 X222.0456852791878 Y355.4162436548223 I35.16751269035533 J-60.256345177664976
G2 X222.27157360406093 Y355.53553299492387 I2.8248730964467006 J-4.9847715736040605
G2 X222.4517766497462 Y355.61928934010155 I1.1928934010152283 J-2.3477157360406093
G2 X222.51269035532997 Y355.6370558375635 I0.10659898477157359 J-0.2563451776649746
G2 X222.54060913705584 Y355.6218274111675 I0.002538071065989848 J-0.022842639593908632
G2 X222.53045685279187 Y355.5685279187817 I-0.06345177664974619 J-0.015228426395939087
G3 X221.76142131979697 Y354.29187817258884 I14.680203045685278 J-9.710659898477157
G3 X221.1827411167513 Y353.10152284263955 I12.218274111675127 J-6.6725888324873095
G3 X220.90101522842642 Y352.37817258883246 I11.568527918781726 J-4.954314720812183
G3 X220.507614213198 Y351.2081218274112 I29.941624365482234 J-10.687817258883248
G2 X220.3477157360406 Y350.70812182741116 I-51.357868020304565 J16.11421319796954
G2 X220.26903553299493 Y350.47208121827407 I-11.49746192893401 J3.730964467005076
G3 X219.59137055837562 Y348.3502538071066 I40.53299492385787 J-14.083756345177665
G3 X219.25380710659897 Y346.97715736040607 I16.576142131979697 J-4.812182741116751
G3 X218.98477157360406 Y344.751269035533 I13.771573604060913 J-2.799492385786802
G3 X219.09137055837564 Y342.9796954314721 I8.776649746192893 J-0.35786802030456855
G3 X219.52030456852793 Y341.34771573604064 I8.766497461928934 J1.4263959390862944
G3 X220.40862944162438 Y339.39340101522845 I13.48223350253807 J4.949238578680203
G3 X221.19289340101523 Y338.0989847715736 I15.20304568527919 J8.33502538071066
G3 X221.88071065989848 Y337.1878172588833 I8.236040609137056 J5.5
G3 X222.31218274111677 Y336.81218274111677 I1.4568527918781726 J1.2385786802030458
G3 X223.1802030456853 Y336.3629441624366 I2.9923857868020303 J4.710659898477157
G3 X223.73604060913706 Y336.15736040609136 I3.223350253807107 J7.82741116751269
G3 X224.96700507614213 Y335.76903553299496 I12.690355329949238 J38.223350253807105
G2 X226.10913705583755 Y335.4111675126904 I-10.939086294416242 J-36.85786802030457
G2 X226.5736040609137 Y335.23604060913704 I-2.0888324873096447 J-6.309644670050761
G2 X227.2766497461929 Y334.85279187817264 I-1.4670050761421318 J-3.5228426395939088
G2 X227.5507614213198 Y334.5634517766497 I-0.5406091370558376 J-0.7842639593908629
G2 X228.55837563451774 Y332.75380710659897 I-24.961928934010153 J-15.081218274111674
G2 X229.07868020304568 Y331.5736040609137 I-10.065989847715734 J-5.144670050761421
G2 X229.36294416243655 Y330.61167512690355 I-6.758883248730965 J-2.530456852791878
G2 X229.4289340101523 Y329.99746192893406 I-2.6827411167512687 J-0.5989847715736041
G2 X229.2715736040609 Y329.34517766497464 I-1.4670050761421318 J0.010152284263959392
G2 X228.91370558375633 Y328.97715736040607 I-0.7639593908629441 J0.3857868020304569
G3 X226.14467005076142 Y326.8832487309645 I5.365482233502537 J-9.967005076142133
G3 X223.96700507614213 Y323.8654822335025 I9.347715736040609 J-9.048223350253807
G3 X223.35532994923858 Y322.55583756345175 I14.050761421319798 J-7.350253807106599
G3 X222.76649746192896 Y320.95431472081214 I20.446700507614214 J-8.423857868020304
G3 X222.47715736040607 Y320 I23.50507614213198 J-7.624365482233503
G3 X222.02284263959393 Y318.29695431472084 I74.34263959390863 J-20.83756345177665
G2 X221.75380710659897 Y317.2791878172589 I-82.27664974619289 J21.048223350253807
G2 X221.63451776649748 Y316.8527918781726 I-14.408629441624365 J3.8756345177664975
G2 X221.4035532994924 Y316.1776649746193 I-9.390862944162437 J2.8274111675126905
G2 X221.2284263959391 Y315.79695431472084 I-3.1421319796954315 J1.2030456852791878
G3 X220.73096446700507 Y314.4035532994924 I4.484771573604061 J-2.3908629441624365
G3 X220.57360406091368 Y312.51522842639594 I8.17258883248731 J-1.634517766497462
G3 X220.66751269035532 Y311.38071065989845 I10.799492385786802 J0.3299492385786802
G3 X221.03299492385787 Y309.15482233502536 I42.01269035532995 J5.746192893401015
G2 X221.26395939086294 Y307.8578680203046 I-55.93908629441624 J-10.708121827411167
G2 X221.34517766497464 Y307.29187817258884 I-10.66243654822335 J-1.7868020304568528
G2 X221.39086294416245 Y306.3578680203046 I-7.263959390862944 J-0.8248730964467005
G2 X221.3223350253807 Y305.78426395939084 I-2.814720812182741 J0.04060913705583757
G2 X220.502538071066 Y302.2969543147208 I-170.91116751269033 J38.37309644670051
G2 X220.02284263959393 Y300.505076142132 I-45.47715736040609 J11.19289340101523
G2 X219.33756345177667 Y298.4060913705584 I-30.365482233502537 J8.761421319796955
G2 X218.65736040609136 Y296.7741116751269 I-19.073604060913706 J6.977157360406091
G2 X217.74365482233503 Y295.005076142132 I-22.857868020304572 J10.705583756345177
G2 X216.4263959390863 Y292.84771573604064 I-35.42639593908629 J20.13705583756345
G2 X215.58121827411168 Y291.5964467005076 I-41.29187817258884 J26.987309644670052
G2 X213.85279187817258 Y289.16243654822335 I-158.3248730964467 J110.53299492385787
G3 X212.7005076142132 Y287.5532994923858 I220.48730964467006 J-159.06345177664974
G3 X212.1522842639594 Y286.7690355329949 I51.819796954314725 J-36.81218274111675
G3 X211.2715736040609 Y285.4467005076142 I41.71573604060914 J-28.700507614213198
G3 X210.64467005076142 Y284.4238578680203 I24.34010152284264 J-15.644670050761423
G3 X209.34771573604058 Y281.7817258883249 I17.36548223350254 J-10.170050761421319
G3 X208.7741116751269 Y279.78426395939084 I9.31472081218274 J-3.7563451776649748
G2 X208.13197969543148 Y277.2715736040609 I-17.32233502538071 J3.081218274111675
G2 X207.03553299492384 Y274.6015228426396 I-20.672588832487307 J6.931472081218274
G2 X206.23350253807106 Y273.1015228426396 I-21.5253807106599 J10.555837563451778
G2 X204.6522842639594 Y270.502538071066 I-66.3274111675127 J38.588832487309645
G3 X203.87309644670052 Y269.26142131979697 I99.36040609137055 J-63.20812182741116
G3 X203.53045685279187 Y268.6903553299492 I20.571065989847718 J-12.728426395939085
G3 X203.01269035532997 Y267.73350253807104 I15.497461928934012 J-9.01015228426396
G3 X202.7005076142132 Y267.0406091370558 I7.817258883248731 J-3.931472081218274
G3 X202.1776649746193 Y265.02030456852793 I7.756345177664975 J-3.0888324873096447
G3 X202.0253807106599 Y261.8045685279188 I19.695431472081218 J-2.5431472081218276
G3 X202.0989847715736 Y260.4593908629442 I31.083756345177665 J1.0532994923857868
G3 X202.2741116751269 Y258.5939086294416 I59.92639593908629 J4.634517766497462
G3 X202.4035532994924 Y257.4619289340102 I78.5253807106599 J8.543147208121827
G3 X202.71573604060916 Y255.01522842639594 I367.5812182741117 J45.36548223350253
G2 X203.1802030456853 Y251.25126903553297 I-299.21319796954316 J-38.95177664974619
G2 X203.39847715736042 Y249.2005076142132 I-88.67766497461929 J-10.413705583756345
G2 X203.64720812182742 Y245.7182741116751 I-79.6015228426396 J-7.4873096446700504
G2 X203.7233502538071 Y242.71319796954316 I-59.17766497461929 J-2.969543147208122
G2 X209.497461928934 Y251.84771573604058 I46.05837563451777 J-22.730964467005073
G2 X216.10913705583755 Y258.3730964467005 I29.774111675126903 J-23.553299492385786
G2 X220.39086294416245 Y261.1928934010152 I21.23350253807107 J-27.573604060913706
G2 X224.07868020304568 Y262.8197969543147 I10.49238578680203 J-18.809644670050762
G3 X227.53807106598984 Y264.06598984771574 I-23.837563451776653 J71.55076142131979
G3 X231.61675126903555 Y265.74619289340103 I-39.296954314720814 J101.21827411167513
G3 X233.9517766497462 Y266.79187817258884 I-48.35532994923858 J110.96954314720811
G3 X237.97969543147207 Y268.6802030456853 I-152.94162436548223 J331.6395939086294
G2 X240.5659898477157 Y269.8959390862944 I144.70812182741116 J-303.99238578680206
G2 X241.58121827411168 Y270.3578680203046 I21.63705583756345 J-46.46446700507614
G2 X243.23857868020303 Y271.0279187817259 I11.946700507614214 J-27.18781725888325
G2 X244.03299492385787 Y271.26142131979697 I2.2030456852791875 J-5.964467005076141
G2 X246.1243654822335 Y271.6751269035533 I8.408629441624365 J-36.97715736040609
G2 X248.54060913705584 Y272.02284263959393 I8.291878172588833 J-49.07360406091371
G2 X249.96700507614213 Y272.1751269035533 I6.446700507614214 J-54.24111675126903
G2 X252.52284263959393 Y272.39086294416245 I16.071065989847714 J-174.10659898477155
G3 X254.15989847715736 Y272.5253807106599 I-15.434010152284262 J199.09390862944161
G3 X254.88578680203045 Y272.5939086294416 I-3.3756345177664975 J39.347715736040605
G3 X256.06852791878174 Y272.74365482233503 I-2.972081218274112 J28.44670050761421
G3 X256.8604060913706 Y272.88324873096445 I-1.8908629441624367 J12.883248730964468
G2 X259.88578680203045 Y273.3147208121827 I4.761421319796954 J-22.609137055837564
G2 X262.21319796954316 Y273.28680203045684 I1.0101522842639594 J-13.395939086294417
G2 X263.38071065989845 Y273.0964467005076 I-0.901015228426396 J-9.131979695431472
G2 X264.1979695431472 Y272.82741116751265 I-1.0913705583756346 J-4.715736040609137
G2 X264.9593908629442 Y272.3730964467005 I-1.2944162436548223 J-3.020304568527919
G2 X265.38071065989845 Y271.8807106598985 I-1.098984771573604 J-1.3705583756345177
G2 X265.96700507614213 Y270.7005076142132 I-9.00761421319797 J-5.197969543147209
G2 X266.25126903553297 Y269.8045685279188 I-4.870558375634518 J-2.0406091370558377
G2 X266.33756345177665 Y268.9137055837563 I-3.5710659898477157 J-0.7944162436548223
G2 X266.21065989847716 Y268.25888324873097 I-2.030456852791878 J0.053299492385786795
G2 X265.8756345177665 Y267.70558375634516 I-1.6421319796954315 J0.6116751269035533
G2 X265.3197969543147 Y267.26142131979697 I-1.5812182741116751 J1.4086294416243654
G2 X264.6446700507614 Y266.992385786802 I-1.3756345177664975 J2.484771573604061
G2 X263.6472081218274 Y266.8350253807107 I-1.352791878172589 J5.317258883248731
G3 X261.34263959390864 Y266.60406091370555 I2.1472081218274113 J-33.058375634517766
G3 X259.5 Y266.2715736040609 I2.906091370558376 J-21.436548223350258
G3 X258.4492385786802 Y265.98984771573606 I2.8527918781725887 J-12.67766497461929
G3 X257.83248730964465 Y265.74619289340103 I1.4467005076142132 J-4.591370558375635
G3 X257.25380710659897 Y265.34771573604064 I0.9517766497461928 J-2.010152284263959
G3 X257.10913705583755 Y265.0583756345178 I0.32487309644670054 J-0.3426395939086294
G3 X257.21319796954316 Y264.60406091370555 I0.7106598984771574 J-0.07868020304568528
G3 X257.68527918781723 Y264.1319796954315 I1.248730964467005 J0.7766497461928934
G3 X258.25380710659897 Y263.8553299492386 I1.5862944162436547 J2.5532994923857864
G3 X259.28934010152284 Y263.55583756345175 I2.946700507614213 J8.200507614213198
G3 X260.5862944162437 Y263.3299492385787 I2.9492385786802027 J13.098984771573603
G3 X263.34263959390864 Y263.0507614213198 I7.317258883248731 J59.03045685279188
G2 X264.4289340101523 Y262.9593908629442 I-4.388324873096447 J-57.08375634517766
G2 X264.70050761421317 Y262.9213197969543 I-0.3451776649746193 J-3.5939086294416245
G2 X266.1802030456853 Y262.5532994923858 I-1.7893401015228427 J-10.32741116751269
G2 X266.88578680203045 Y262.20304568527916 I-0.8705583756345179 J-2.654822335025381
G2 X267.15736040609136 Y261.96446700507613 I-0.8451776649746192 J-1.236040609137056
G2 X267.28426395939084 Y261.75888324873097 I-0.5 J-0.4467005076142132
G2 X267.31725888324877 Y261.5304568527919 I-0.48223350253807107 J-0.18527918781725888
G2 X267.24619289340103 Y261.28934010152284 I-0.6192893401015229 J0.050761421319796954
G2 X266.8984771573604 Y260.9035532994924 I-0.9568527918781726 J0.5126903553299492
G2 X265.93654822335026 Y260.4010152284264 I-2.6598984771573604 J3.913705583756345
G2 X264.8071065989848 Y260.0558375634518 I-2.984771573604061 J7.756345177664975
G2 X263.1192893401015 Y259.75634517766497 I-3.8984771573604062 J17.032994923857867
G2 X259.56852791878174 Y259.48477157360406 I-4.449238578680203 J34.86040609137056
G2 X255.35786802030458 Y259.55583756345175 I-1.2563451776649746 J49.15736040609137
G2 X251.71065989847716 Y259.9111675126904 I3.00507614213198 J49.92131979695431
G2 X249.08375634517768 Y260.3984771573604 I3.535532994923858 J26.34771573604061
G3 X248.12944162436548 Y260.56345177664974 I-1.794416243654822 J-7.527918781725889
G3 X247.85532994923858 Y260.53299492385787 I-0.06852791878172589 J-0.6243654822335025
G3 X247.74365482233503 Y260.46700507614213 I0.10659898477157359 J-0.30964467005076146
G3 X247.65989847715736 Y260.3553299492386 I0.24619289340101522 J-0.2715736040609137
G3 X247.62690355329948 Y260.26649746192896 I0.49238578680203043 J-0.23857868020304568
G3 X247.56598984771574 Y260.0304568527919 I3.614213197969543 J-1.0456852791878173
G2 X247.37817258883246 Y259.4238578680203 I-3.7639593908629445 J0.8274111675126904
G2 X247.13959390862942 Y258.96700507614213 I-2.33502538071066 J0.9365482233502538
G2 X246.5456852791878 Y258.2817258883249 I-2.972081218274112 J1.9720812182741119
G2 X245.4593908629442 Y257.46446700507613 I-5.370558375634518 J6.00253807106599
G2 X245.18527918781726 Y257.34263959390864 I-0.5507614213197969 J0.8781725888324874
G2 X244.7258883248731 Y257.26142131979697 I-0.6649746192893401 J2.403553299492386
G2 X244.43654822335023 Y257.248730964467 I-0.31218274111675126 J3.7411167512690358
G2 X243.76142131979694 Y257.25634517766497 I-0.12436548223350254 J20.446700507614214
G3 X242.46954314720813 Y257.23096446700504 I-0.3857868020304569 J-14.317258883248732
G3 X241.80964467005077 Y257.1319796954315 I0.24111675126903553 J-3.802030456852792
G3 X240.80964467005074 Y256.6928934010152 I0.7411167512690355 J-3.0431472081218276
G3 X240.03553299492384 Y255.94670050761422 I1.6776649746192893 J-2.5101522842639596
G2 X239.46700507614213 Y255.23857868020303 I-6.883248730964468 J4.954314720812183
G2 X237.39340101522842 Y252.997461928934 I-71.23350253807106 J63.8756345177665
G2 X235.12690355329948 Y250.71573604060913 I-62.26142131979695 J59.51776649746193
G2 X234.11928934010152 Y249.81979695431474 I-10.553299492385786 J10.873096446700508
G3 X233.2258883248731 Y248.7766497461929 I2.4086294416243654 J-2.972081218274112
G3 X232.81472081218277 Y247.58629441624365 I2.784263959390863 J-1.6269035532994924
G3 X232.83756345177665 Y246.95939086294416 I1.8350253807106598 J-0.2512690355329949
G3 X233.03553299492387 Y246.5253807106599 I1.050761421319797 J0.2182741116751269
G3 X233.45685279187816 Y246.19289340101523 I0.8553299492385786 J0.6522842639593909
G3 X234.21065989847716 Y246.01015228426394 I0.9060913705583756 J2.063451776649746
G3 X235.05583756345177 Y246.03045685279187 I0.30456852791878175 J4.550761421319797
G3 X236.53807106598987 Y246.28680203045687 I-1.7081218274111676 J14.33756345177665
G3 X237.7715736040609 Y246.60406091370558 I-4.802030456852791 J21.20812182741117
G3 X239.3248730964467 Y247.09137055837562 I-9.873096446700508 J34.170050761421315
G3 X240.6218274111675 Y247.55583756345177 I-12.941624365482234 J38.14720812182741
G3 X241.7791878172589 Y248.0177664974619 I-11.677664974619288 J30.908629441624367
G3 X242.8223350253807 Y248.48984771573606 I-8.5 J20.162436548223347
G3 X243.1040609137056 Y248.65989847715736 I-0.7868020304568528 J1.6218274111675126
G2 X246.75126903553297 Y250.78680203045684 I11.776649746192893 J-16.017766497461928
G2 X252.47208121827413 Y252.85786802030458 I16.873096446700508 J-37.66243654822335
G2 X255.66243654822333 Y253.64213197969545 I13.596446700507613 J-48.43908629441624
G2 X259.76903553299496 Y254.4010152284264 I16.82994923857868 J-79.60406091370558
G3 X260.43654822335026 Y254.51015228426397 I-6.934010152284263 J43.799492385786806
G3 X260.51776649746193 Y254.5304568527919 I-0.1116751269035533 J0.6446700507614213
G2 X262.71827411167516 Y255.1015228426396 I7.586294416243655 J-24.741116751269033
G2 X264.05837563451774 Y255.28426395939084 I1.9035532994923856 J-8.946700507614214
G2 X265.1472081218274 Y255.2233502538071 I0.2868020304568528 J-4.65736040609137
G2 X265.5862944162437 Y255.01776649746193 I-0.15736040609137056 J-0.9086294416243655
G2 X265.74111675126903 Y254.7030456852792 I-0.2868020304568528 J-0.3375634517766497
G2 X265.6243654822335 Y254.28934010152284 I-0.6725888324873096 J-0.03553299492385787
G2 X265.2715736040609 Y253.93654822335026 I-1.119289340101523 J0.766497461928934
G2 X264.70050761421317 Y253.65482233502536 I-1.2690355329949239 J1.8477157360406091
G2 X262.9593908629442 Y253.13451776649745 I-11.213197969543147 J34.398477157360404
G2 X259.8451776649746 Y252.33756345177665 I-29.705583756345177 J109.49492385786803
G3 X257.494923857868 Y251.73857868020306 I21.31218274111675 J-88.40101522842639
G3 X256.61167512690355 Y251.46700507614213 I3.439086294416244 J-12.761421319796955
G3 X252.20812182741116 Y249.85025380710658 I41.45431472081218 J-119.77918781725889
G3 X250.11421319796955 Y248.94416243654825 I10.82994923857868 J-27.9010152284264
G3 X249.17005076142132 Y248.44923857868022 I6.482233502538071 J-13.543147208121828
G3 X248.69543147208122 Y248.13705583756345 I2.1167512690355332 J-3.7182741116751266
G3 X248.34010152284264 Y247.7741116751269 I1.0736040609137056 J-1.4111675126903553
G3 X248.28680203045684 Y247.57868020304568 I0.22588832487309643 J-0.16751269035532995
G3 X248.37563451776649 Y247.42131979695432 I0.22842639593908629 J0.022842639593908632
G3 X248.73350253807106 Y247.23604060913704 I0.6802030456852792 J0.8883248730964467
G3 X249.13197969543148 Y247.14720812182742 I0.7944162436548223 J2.6345177664974617
G3 X249.87817258883246 Y247.07106598984774 I1.3248730964467004 J9.114213197969542
G3 X251.14467005076142 Y247.03807106598984 I1.0634517766497462 J16.888324873096447
G3 X253.63705583756345 Y247.11675126903555 I-0.7893401015228427 J65.70558375634518
G2 X256.3502538071066 Y247.1979695431472 I3.347715736040609 J-66.90862944162436
G2 X260.84263959390864 Y247.18527918781723 I1.7461928934010151 J-183.6751269035533
G2 X263.0279187817259 Y247.13451776649745 I-1.9796954314720814 J-132.50761421319797
G2 X264.51269035532994 Y247.06852791878174 I-1.9213197969543148 J-61.04822335025381
G2 X266.1827411167513 Y246.9314720812183 I-1.7233502538071066 J-30.85279187817259
G2 X266.65228426395936 Y246.83248730964468 I-0.2766497461928934 J-2.517766497461929
G3 X270.8527918781726 Y245.63451776649745 I29.982233502538072 J97.06091370558376
G3 X275.505076142132 Y244.51015228426397 I30.931472081218274 J117.89340101522842
G2 X276.34517766497464 Y244.3223350253807 I-34.39593908629442 J-155.7741116751269
G2 X276.6497461928934 Y244.25126903553297 I-4.700507614213198 J-20.748730964467008
G2 X277.1269035532995 Y244.12436548223351 I-2.786802030456853 J-11.515228426395938
G2 X277.34010152284264 Y244.05329949238578 I-0.6903553299492386 J-2.4086294416243654
G2 X278.45685279187813 Y243.61167512690355 I-32.54060913705584 J-84.0507614213198
G2 X280.8781725888325 Y242.62944162436548 I-159.10406091370558 J-395.23604060913704
G3 X282.66751269035535 Y241.8984771573604 I174.38071065989848 J425.6370558375635
G3 X283.38578680203045 Y241.61421319796955 I27.596446700507613 J68.1751269035533
G3 X284.57360406091374 Y241.17005076142132 I14.48477157360406 J36.89593908629442
G3 X284.994923857868 Y241.04060913705584 I1.5939086294416245 J4.477157360406092
G2 X285.7664974619289 Y240.79441624365484 I-1.7309644670050761 J-6.781725888324873
G2 X287.11928934010155 Y240.22842639593907 I-8.187817258883248 J-21.383248730964468
G2 X287.89593908629445 Y239.85786802030458 I-13.804568527918782 J-30.126903553299492
G2 X289.45939086294413 Y239.07868020304568 I-60.175126903553306 J-122.7994923857868
G3 X290.44416243654825 Y238.58629441624367 I70.84010152284263 J140.00761421319797
G3 X290.84010152284264 Y238.39340101522845 I11.261421319796954 J22.64720812182741
G3 X291.497461928934 Y238.1015228426396 I6.177664974619289 J12.98984771573604
G3 X291.7791878172589 Y238.002538071066 I0.9492385786802031 J2.284263959390863
G2 X293.45939086294413 Y237.39340101522842 I-3.1928934010152283 J-11.385786802030458
G2 X294.81725888324877 Y236.62944162436548 I-3.700507614213198 J-8.187817258883248
G2 X295.4086294416244 Y236.15482233502536 I-2.703045685279188 J-3.9695431472081215
G2 X295.65736040609136 Y235.83502538071065 I-0.9289340101522843 J-0.9847715736040609
G2 X295.7157360406091 Y235.47715736040607 I-0.45431472081218277 J-0.2563451776649746
G2 X295.5279187817259 Y235.19796954314722 I-0.434010152284264 J0.08883248730964467
G2 X295.0380710659898 Y235.01522842639594 I-0.6142131979695432 J0.9086294416243655
G2 X294.0786802030457 Y235.03299492385787 I-0.41878172588832485 J3.66243654822335
G2 X293.251269035533 Y235.21065989847716 I0.9517766497461928 J6.418781725888325
G2 X292.0888324873096 Y235.5989847715736 I3.7258883248730963 J13.055837563451778
G2 X290.0431472081218 Y236.51776649746193 I7.50507614213198 J19.446700507614214
G2 X288.7741116751269 Y237.30710659898477 I4.241116751269035 J8.228426395939085
G3 X287.6345177664974 Y238.03045685279187 I-5.512690355329949 J-7.444162436548223
G3 X285.75888324873097 Y238.92385786802032 I-10.335025380710661 J-19.299492385786802
G3 X284.6345177664974 Y239.36548223350255 I-11.18274111675127 J-26.69289340101523
G3 X282.4746192893401 Y240.13959390862942 I-36.1497461928934 J-97.52791878172589
G2 X281.01015228426394 Y240.65989847715738 I29.54314720812183 J85.43654822335026
G2 X280.502538071066 Y240.86040609137055 I3.8121827411167515 J10.436548223350254
G3 X278.8248730964467 Y241.33502538071068 I-2.738578680203046 J-6.49238578680203
G3 X276.96700507614213 Y241.4010152284264 I-1.2131979695431472 J-7.939086294416243
G3 X276.25634517766497 Y241.29949238578678 I0.47715736040609136 J-5.9238578680203045
G3 X275.8781725888325 Y241.1776649746193 I0.3629441624365482 J-1.7766497461928934
G3 X275.7258883248731 Y241.08629441624367 I0.31218274111675126 J-0.7005076142131981
G3 X275.6751269035533 Y241.0203045685279 I0.09644670050761422 J-0.12690355329949238
G3 X275.6776649746193 Y240.94923857868022 I0.07868020304568528 J-0.03299492385786802
G3 X275.7614213197969 Y240.86040609137055 I0.20558375634517764 J0.1116751269035533
G3 X276.42893401015226 Y240.5228426395939 I2.345177664974619 J3.791878172588832
G3 X277.5558375634518 Y240.13197969543145 I4.258883248730965 J10.49238578680203
G3 X278.2284263959391 Y239.9543147208122 I4.228426395939086 J14.695431472081218
G3 X279.51269035532994 Y239.66497461928935 I12.81472081218274 J53.58375634517767
G2 X280.4619289340102 Y239.4492385786802 I-8.362944162436548 J-39.0736040609137
G2 X280.74873096446703 Y239.36802030456852 I-0.8705583756345179 J-3.629441624365482
G2 X282.29441624365484 Y238.84517766497464 I-21.680203045685282 J-66.56091370558376
G2 X283.48730964467006 Y238.4035532994924 I-14.104060913705583 J-40.098984771573605
G2 X284.9746192893401 Y237.78934010152284 I-11.713197969543147 J-30.37055837563452
G2 X286.01522842639594 Y237.28172588832484 I-6.84010152284264 J-15.416243654822335
G2 X286.7690355329949 Y236.7791878172589 I-2.0761421319796955 J-3.9289340101522843
G2 X288.06091370558374 Y235.59390862944161 I-10.619289340101524 J-12.862944162436548
G2 X288.98984771573606 Y234.59390862944161 I-17.748730964467004 J-17.398477157360407
G2 X289.76649746192896 Y233.65228426395936 I-14.941624365482234 J-13.119289340101524
G3 X290.1751269035533 Y233.23350253807106 I2.00253807106599 J1.550761421319797
G3 X291.10659898477155 Y232.56852791878174 I6.091370558375635 J7.535532994923858
G3 X291.98223350253807 Y232.05837563451777 I8.114213197969542 J12.895939086294417
G3 X293.1345177664975 Y231.4746192893401 I11.720812182741117 J21.710659898477157
G3 X294.2182741116751 Y230.98984771573606 I11.401015228426397 J24.04060913705584
G3 X295.16497461928935 Y230.61928934010152 I7.550761421319797 J17.951776649746193
G3 X296.1345177664975 Y230.31472081218277 I4.15482233502538 J11.530456852791877
G3 X296.52030456852793 Y230.253807106599 I0.46954314720812185 J1.748730964467005
G2 X297.3756345177665 Y230.07868020304568 I-0.1319796954314721 J-2.7918781725888326
G2 X298.0532994923858 Y229.6776649746193 I-0.8020304568527918 J-2.1243654822335025
G2 X298.38071065989845 Y229.33502538071068 I-1.5913705583756346 J-1.8553299492385786
G2 X298.8654822335025 Y228.64720812182742 I-6.098984771573605 J-4.814720812182741
G3 X299.0507614213198 Y228.36294416243652 I10.83502538071066 J6.789340101522843
G3 X299.1345177664975 Y228.24365482233503 I1.9568527918781724 J1.2994923857868022
G3 X299.28934010152284 Y228.0659898477157 I1.2690355329949239 J0.9619289340101522
G3 X299.4111675126903 Y227.9720812182741 I0.46700507614213194 J0.47715736040609136
G3 X299.71827411167516 Y227.91624365482235 I0.22588832487309643 J0.3730964467005076
G3 X300.1751269035533 Y228.11928934010152 I-0.21065989847715735 J1.1015228426395938
G3 X300.5913705583756 Y228.44670050761422 I-4.987309644670051 J6.715736040609137
G3 X301.1243654822335 Y228.92131979695432 I-9.842639593908629 J11.642131979695431
G2 X301.5253807106599 Y229.26395939086294 I4.291878172588833 J-4.616751269035532
G2 X301.6700507614213 Y229.34771573604058 I0.3934010152284264 J-0.5025380710659898
G2 X301.8934010152284 Y229.3781725888325 I0.1649746192893401 J-0.3908629441624366
G2 X302.1903553299492 Y229.2766497461929 I-0.1116751269035533 J-0.8096446700507615
G2 X302.3451776649746 Y229.18781725888326 I-84.71827411167511 J-147.2208121827411
G2 X302.68274111675123 Y228.99238578680206 I-391.7994923857868 J-679.1802030456853
G3 X305.29949238578683 Y227.51522842639594 I76.34263959390863 J132.18781725888326
G3 X306.51269035532994 Y226.88071065989848 I15.30203045685279 J27.743654822335024
G3 X307.5279187817259 Y226.41116751269035 I9.185279187817258 J18.5
G3 X308.1218274111675 Y226.18781725888326 I2.626903553299492 J6.101522842639594
G3 X308.46446700507613 Y226.09390862944164 I1.1878172588832487 J3.6954314720812182
G3 X308.6776649746193 Y226.06345177664974 I0.31725888324873097 J1.4213197969543148
G3 X308.8984771573604 Y226.07868020304568 I0.053299492385786795 J0.7614213197969544
G3 X309.00761421319794 Y226.13705583756345 I-0.050761421319796954 J0.2233502538071066
G3 X309.1725888324873 Y226.48730964467006 I-0.3629441624365482 J0.3857868020304569
G3 X309.05837563451774 Y226.95685279187816 I-0.8121827411167513 J0.050761421319796954
G3 X308.75634517766497 Y227.34263959390861 I-1.6725888324873097 J-1.00253807106599
G3 X308.06345177664974 Y227.94162436548223 I-4.824873096446701 J-4.875634517766497
G3 X307.1294416243655 Y228.57614213197968 I-6.850253807106599 J-9.078680203045685
G3 X304.9035532994924 Y229.86802030456855 I-30.794416243654823 J-50.5507614213198
G2 X304.1725888324873 Y230.2741116751269 I46.51269035532995 J84.40609137055837
G2 X303.9111675126903 Y230.4263959390863 I6.129441624365483 J10.898477157360407
G2 X303.51015228426394 Y230.68781725888326 I2.9137055837563453 J4.901015228426396
G2 X303.42893401015226 Y230.7690355329949 I0.18781725888324874 J0.2639593908629442
G2 X302.7208121827411 Y231.97461928934013 I8.908629441624365 J6.040609137055838
G2 X302.4517766497462 Y232.71573604060916 I3.0710659898477157 J1.5431472081218276
G2 X302.4137055837564 Y233.33502538071065 I1.7055837563451774 J0.4086294416243655
G2 X302.56598984771574 Y233.6802030456853 I0.6421319796954316 J-0.07868020304568528
G2 X302.8248730964467 Y233.85786802030455 I0.46700507614213194 J-0.4010152284263959
G2 X303.2233502538071 Y233.91624365482232 I0.3375634517766497 J-0.9416243654822334
G2 X303.5939086294416 Y233.83756345177665 I-0.07614213197969544 J-1.2842639593908631
G2 X303.8629441624365 Y233.6776649746193 I-0.30456852791878175 J-0.8223350253807106
G2 X304.2385786802031 Y233.3502538071066 I-38.43908629441624 J-44.36802030456853
G2 X305.010152284264 Y232.66751269035535 I-165.06852791878174 J-187.2944162436548
G3 X306.8020304568528 Y231.10913705583755 I75.9517766497462 J85.46700507614213
G3 X307.6979695431472 Y230.37817258883248 I17.593908629441625 J20.644670050761423
G3 X309.2766497461929 Y229.25888324873097 I12.718274111675127 J16.281725888324875
G3 X310.4619289340102 Y228.60659898477155 I5.469543147208121 J8.543147208121827
G2 X313.0862944162437 Y227.2284263959391 I-12.939086294416244 J-27.78680203045685
G2 X315.7030456852792 Y225.5177664974619 I-17.302030456852794 J-29.35786802030457
G2 X317.1802030456853 Y224.3959390862944 I-21.015228426395936 J-29.17005076142132
G2 X319.75634517766497 Y222.27157360406093 I-72.90101522842639 J-90.91370558375635
G3 X321.10913705583755 Y221.12944162436548 I119.07360406091371 J140.0761421319797
G3 X321.7690355329949 Y220.59137055837564 I27.185279187817258 J32.611675126903556
G3 X322.8832487309645 Y219.73604060913704 I21.413705583756343 J26.761421319796955
G3 X323.78680203045684 Y219.10913705583755 I12.413705583756345 J16.888324873096447
G2 X326.21827411167516 Y217.39593908629442 I-25.296954314720814 J-38.48477157360406
G2 X328.20558375634516 Y215.7766497461929 I-20.596446700507617 J-27.317258883248734
G2 X330.25888324873097 Y213.74365482233503 I-16.16497461928934 J-18.393401015228427
G2 X331.31472081218277 Y212.31218274111677 I-6.903553299492385 J-6.197969543147208
G2 X331.92385786802026 Y211.0253807106599 I-6.228426395939087 J-3.730964467005076
G2 X332.11928934010155 Y210.06598984771574 I-3.223350253807107 J-1.1522842639593909
G2 X332.06091370558374 Y209.5786802030457 I-1.4467005076142132 J-0.08121827411167513
G2 X331.9060913705584 Y209.34263959390861 I-0.45685279187817257 J0.13451776649746194
G2 X331.61421319796955 Y209.24111675126903 I-0.2893401015228426 J0.35279187817258884
G2 X331.03807106598987 Y209.35279187817258 I0.017766497461928935 J1.634517766497462
G2 X330.6269035532995 Y209.51776649746193 I7.606598984771573 J19.512690355329948
G2 X329.53807106598987 Y209.97208121827413 I57.203045685279186 J138.0507614213198
G3 X328.1649746192893 Y210.5482233502538 I-61.83248730964466 J-145.95685279187816
G3 X327.52030456852793 Y210.80710659898477 I-13.225888324873097 J-32.055837563451774
G3 X326.4086294416244 Y211.20558375634516 I-7.959390862944162 J-20.446700507614214
G3 X325.8807106598985 Y211.34517766497464 I-1.4670050761421318 J-4.464467005076142
G3 X325.56345177664974 Y211.38578680203045 I-0.4314720812182741 J-2.114213197969543
G3 X325.4213197969543 Y211.37055837563452 I-0.022842639593908632 J-0.4314720812182741
G3 X325.3299492385787 Y211.29187817258884 I0.04060913705583757 J-0.13959390862944163
G3 X325.3197969543147 Y211.15736040609136 I0.16751269035532995 J-0.07868020304568528
G3 X325.50507614213194 Y210.83502538071065 I0.817258883248731 J0.25380710659898476
G3 X326.5431472081218 Y209.81472081218274 I9.728426395939087 J8.865482233502538
G3 X327 Y209.46954314720813 I2.6421319796954315 J3.0076142131979693
G3 X328.4467005076142 Y208.5736040609137 I19.403553299492387 J29.736040609137056
G3 X329.3147208121827 Y208.07360406091368 I31.931472081218274 J54.474619289340104
G3 X331.24619289340103 Y206.992385786802 I151.91370558375635 J268.83502538071065
G2 X332.82741116751265 Y206.10659898477155 I-126.38832487309644 J-227.4492385786802
G2 X333.34010152284264 Y205.80964467005074 I-13.606598984771574 J-24.091370558375633
G2 X333.73857868020303 Y205.56345177664977 I-7.431472081218274 J-12.52284263959391
G2 X333.89593908629445 Y205.4543147208122 I-1.3147208121827412 J-2.0609137055837565
G2 X333.97461928934007 Y205.38832487309645 I-0.5583756345177665 J-0.7411167512690355
G2 X333.99238578680206 Y205.36294416243658 I-0.06091370558375635 J-0.06598984771573604
G1 X333.98730964467006 Y205.3451776649746
G2 X333.94923857868025 Y205.33756345177665 I-0.03299492385786802 J0.05837563451776649
G3 X332.96446700507613 Y205.38578680203045 I-1.3299492385786802 J-17.053299492385786
G3 X331.5431472081218 Y205.38578680203045 I-0.7208121827411168 J-35.629441624365484
G3 X330.6954314720812 Y205.36040609137058 I0.9137055837563451 J-46.50761421319797
G3 X328.9593908629442 Y205.28680203045684 I7.388324873096447 J-194.80456852791878
G2 X326.16751269035535 Y205.19543147208122 I-4.789340101522843 J102.20812182741116
G2 X325.0888324873097 Y205.21065989847716 I-0.29949238578680204 J15.266497461928934
G2 X324.23604060913704 Y205.29187817258884 I0.5203045685279188 J10.1751269035533
G2 X323.71573604060916 Y205.39847715736042 I0.5279187817258884 J3.8756345177664975
G2 X323.1903553299492 Y205.6218274111675 I0.583756345177665 J2.1040609137055837
G2 X322.9492385786802 Y205.8502538071066 I0.3756345177664975 J0.6370558375634517
G3 X322.0888324873096 Y206.83502538071068 I-4.0456852791878175 J-2.67258883248731
G3 X320.9263959390863 Y207.61167512690355 I-3.631979695431472 J-4.1725888324873095
G3 X320.1446700507614 Y207.94162436548223 I-2.9010152284263957 J-5.809644670050761
G3 X318.56091370558374 Y208.4289340101523 I-8.121827411167512 J-23.520304568527916
G2 X317.6243654822335 Y208.69796954314722 I9.923857868020304 J36.454314720812185
G2 X317.1903553299492 Y208.84010152284264 I2.416243654822335 J8.050761421319796
G2 X316.49492385786806 Y209.13705583756348 I2.2030456852791875 J6.1091370558375635
G2 X316.01015228426394 Y209.4289340101523 I1.634517766497462 J3.2791878172588835
G3 X314.1954314720812 Y210.48477157360406 I-6.769035532994923 J-9.535532994923857
G3 X312.5431472081218 Y211.0532994923858 I-3.441624365482234 J-7.352791878172589
G3 X311.50761421319794 Y211.21065989847716 I-1.6421319796954315 J-7.276649746192893
G3 X309.73350253807104 Y211.28172588832487 I-1.7563451776649748 J-21.46192893401015
G2 X308.56852791878174 Y211.30456852791878 I-0.025380710659898477 J27.101522842639593
G2 X308 Y211.35532994923858 I0.2766497461928934 J6.550761421319797
G2 X307.0837563451777 Y211.55076142131978 I0.7335025380710659 J5.644670050761421
G2 X306.2791878172589 Y211.8756345177665 I1.4137055837563453 J4.67005076142132
G2 X305.75634517766497 Y212.20558375634516 I1.5837563451776648 J3.101522842639594
G2 X304.78172588832484 Y213.01522842639594 I8.814720812182742 J11.598984771573605
G3 X304.01522842639594 Y213.6776649746193 I-14.228426395939087 J-15.67766497461929
G3 X303.5837563451777 Y214 I-3.7944162436548226 J-4.606598984771574
G3 X302.8045685279188 Y214.4441624365482 I-3.065989847715736 J-4.49238578680203
G3 X302.005076142132 Y214.73350253807104 I-2.0583756345177666 J-4.441624365482234
G2 X301.7868020304569 Y214.81218274111677 I0.3375634517766497 J1.266497461928934
G2 X300.6649746192893 Y215.35786802030458 I16.111675126903553 J34.5
G2 X299.66497461928935 Y215.87563451776649 I37.119289340101524 J73.13197969543147
G2 X298.21065989847716 Y216.6472081218274 I81.80964467005076 J155.84517766497464
G2 X294.9746192893401 Y218.42131979695432 I101.59137055837563 J189.20304568527916
G2 X293.6700507614213 Y219.1852791878173 I17.626903553299492 J31.517766497461928
G3 X293.4492385786802 Y219.2944162436548 I-0.6649746192893401 J-1.0786802030456852
G3 X292.6395939086294 Y219.57106598984774 I-5.3908629441624365 J-14.416243654822336
G3 X291.8730964467005 Y219.7994923857868 I-8.786802030456853 J-28.185279187817258
G3 X290.79441624365484 Y220.09137055837562 I-15.65482233502538 J-55.45939086294417
G3 X288.3527918781726 Y220.68274111675126 I-17.304568527918782 J-66.18274111675126
G3 X286.8832487309645 Y220.96192893401013 I-5.2639593908629445 J-23.654822335025383
G3 X284.992385786802 Y221.17005076142132 I-3.0888324873096447 J-19.477157360406093
G3 X283.97969543147207 Y221.13959390862945 I-0.3401015228426396 J-5.5786802030456855
G3 X283.5304568527919 Y221.0482233502538 I0.3553299492385787 J-2.9263959390862944
G3 X283.2817258883249 Y220.94162436548226 I0.27918781725888325 J-0.9796954314720813
G3 X283.10913705583755 Y220.7741116751269 I0.2817258883248731 J-0.46954314720812185
G3 X283.0558375634518 Y220.6015228426396 I0.2639593908629442 J-0.17512690355329952
G3 X283.1852791878173 Y220.25888324873097 I0.5177664974619289 J0
G3 X283.9086294416244 Y219.63197969543148 I2.6522842639593907 J2.3299492385786804
G3 X284.83502538071065 Y219.11928934010152 I3.967005076142132 J6.081218274111675
G3 X286.3274111675127 Y218.51776649746193 I7 J15.18781725888325
G2 X287.9187817258883 Y217.8451776649746 I-4.444162436548224 J-12.736040609137056
G2 X290.7157360406091 Y216.3223350253807 I-20.51015228426396 J-41.002538071065985
G2 X292.94416243654825 Y214.94416243654823 I-32.99492385786802 J-55.890862944162436
G2 X293.7309644670051 Y214.37309644670052 I-4.862944162436548 J-7.525380710659898
G3 X294.51522842639594 Y213.80710659898477 I5.416243654822335 J6.66497461928934
G3 X296.24365482233503 Y212.76142131979697 I20.251269035532996 J31.60406091370558
G3 X297.2766497461929 Y212.19035532994923 I28.482233502538072 J50.20558375634518
G3 X299.4137055837563 Y211.0482233502538 I115.77157360406092 J214.15736040609136
G2 X300.79441624365484 Y210.31472081218277 I-116.81725888324874 J-221.3248730964467
G2 X301.2994923857868 Y210.03807106598984 I-16.02030456852792 J-29.895939086294415
G2 X301.6954314720812 Y209.81218274111677 I-10.799492385786802 J-19.35786802030457
G2 X301.9263959390863 Y209.67258883248732 I-3.964467005076142 J-6.774111675126903
G2 X302.17005076142135 Y209.502538071066 I-2.1421319796954315 J-3.385786802030457
G2 X302.25126903553297 Y209.4289340101523 I-0.32741116751269034 J-0.4416243654822335
G3 X303.84517766497464 Y207.8223350253807 I17.289340101522843 J15.52030456852792
G3 X306.3071065989848 Y205.71319796954313 I32.24111675126903 J35.18020304568528
G3 X307.79695431472084 Y204.56091370558374 I37.39847715736041 J46.829949238578685
G3 X310.5888324873097 Y202.50761421319797 I121.74111675126903 J162.66751269035535
G2 X312.05837563451774 Y201.43908629441626 I-141.14213197969542 J-195.4568527918782
G2 X312.6370558375634 Y201.00761421319794 I-22.571065989847714 J-30.766497461928935
G2 X313.5456852791878 Y200.2741116751269 I-13.538071065989847 J-17.738578680203045
G2 X313.93401015228426 Y199.90609137055839 I-3.035532994923858 J-3.5736040609137056
G2 X316.9441624365482 Y196.50507614213197 I-59.54822335025381 J-55.753807106598984
G2 X319.72081218274116 Y192.98984771573603 I-60.78426395939086 J-50.868020304568525
G2 X321.83248730964465 Y189.98730964467003 I-54.535532994923855 J-40.629441624365484
G2 X322.7030456852792 Y188.502538071066 I-12.446700507614212 J-8.269035532994923
G3 X323.1903553299492 Y187.63451776649745 I10.639593908629442 J5.4187817258883255
G3 X324.1802030456853 Y186.11675126903552 I33.67005076142132 J20.85279187817259
G3 X324.8020304568528 Y185.2233502538071 I48.87817258883249 J33.45939086294416
G3 X326.20050761421317 Y183.2766497461929 I234.73604060913704 J167.0964467005076
G2 X327.32994923857865 Y181.70812182741116 I-289.0761421319797 J-209.42385786802032
G2 X327.84771573604064 Y180.9771573604061 I-62.76903553299492 J-44.95685279187818
G2 X328.68781725888323 Y179.73857868020303 I-45.4492385786802 J-31.758883248730964
G2 X329.18781725888323 Y178.94416243654825 I-18.32741116751269 J-12.086294416243655
G2 X329.7233502538071 Y177.9568527918782 I-11.124365482233502 J-6.6700507614213205
G2 X329.92639593908626 Y177.42893401015226 I-2.9492385786802027 J-1.4365482233502538
G2 X329.98477157360406 Y177.1269035532995 I-1.6700507614213198 J-0.48223350253807107
G2 X329.9771573604061 Y176.9441624365482 I-0.6116751269035533 J-0.06345177664974619
G2 X329.90101522842644 Y176.78426395939087 I-0.3604060913705584 J0.07106598984771574
G2 X329.7664974619289 Y176.6852791878173 I-0.25380710659898476 J0.20558375634517764
G2 X329.24365482233503 Y176.61928934010152 I-0.3959390862944162 J1.017766497461929
G2 X328.4187817258884 Y176.8451776649746 I0.3350253807106599 J2.8502538071065993
G2 X327.7335025380711 Y177.21065989847716 I2.045685279187817 J4.626903553299492
G2 X326.74365482233503 Y177.91878172588832 I6.697969543147209 J10.451776649746193
G2 X325.6040609137056 Y178.89593908629445 I11.091370558375635 J14.058375634517766
G2 X323.23604060913704 Y181.19543147208122 I59.223350253807105 J63.35532994923858
G3 X321.84517766497464 Y182.56598984771574 I-59.29695431472081 J-58.77918781725889
G3 X321.40101522842644 Y182.96192893401016 I-5.380710659898477 J-5.588832487309645
G3 X321.02538071065993 Y183.23604060913706 I-2.4238578680203045 J-2.939086294416244
G3 X320.8578680203045 Y183.30964467005074 I-0.31725888324873097 J-0.49746192893401014
G3 X320.72588832487315 Y183.2741116751269 I-0.03553299492385787 J-0.13705583756345177
G3 X320.65736040609136 Y183.1218274111675 I0.14720812182741116 J-0.15736040609137056
G3 X320.74873096446703 Y182.64720812182742 I1.1598984771573604 J-0.022842639593908632
G3 X321.23604060913704 Y181.75380710659897 I4.766497461928934 J2.012690355329949
G3 X321.7766497461929 Y181.03045685279187 I7.880710659898477 J5.3578680203045685
G3 X322.71065989847716 Y179.96954314720813 I18.01522842639594 J14.918781725888326
G3 X323.92639593908626 Y178.73857868020306 I24.19796954314721 J22.63705583756345
G3 X326.56598984771574 Y176.25888324873097 I100.4238578680203 J104.30710659898477
G2 X327.5279187817259 Y175.3730964467005 I-149.42385786802032 J-163.1751269035533
G2 X327.88578680203045 Y175.03807106598984 I-20.918781725888323 J-22.576142131979697
G2 X328.4390862944162 Y174.4796954314721 I-10.65736040609137 J-11.139593908629442
G2 X328.5888324873096 Y174.2918781725888 I-1.0634517766497462 J-1.00253807106599
G3 X330.4187817258883 Y171.78934010152284 I31.779187817258887 J21.32741116751269
G3 X331.6294416243654 Y170.4695431472081 I9.964467005076141 J7.928934010152284
G3 X332.37817258883246 Y169.85532994923858 I4.715736040609137 J4.982233502538071
G3 X333.01776649746193 Y169.48730964467003 I2.296954314720812 J3.238578680203046
G2 X333.2233502538071 Y169.35786802030458 I-0.3883248730964467 J-0.8477157360406091
G2 X333.26903553299496 Y169.2791878172589 I-0.08629441624365483 J-0.10406091370558375
G2 X333.26903553299496 Y169.1827411167513 I-0.27918781725888325 J-0.053299492385786795
G2 X333.1751269035533 Y168.6802030456853 I-7.977157360406092 J1.2538071065989849
G2 X332.9543147208122 Y168.10913705583758 I-1.99746192893401 J0.44416243654822335
G2 X332.71319796954316 Y167.8730964467005 I-0.5380710659898478 J0.3071065989847716
G2 X332.42639593908626 Y167.80710659898477 I-0.2563451776649746 J0.46700507614213194
G2 X332 Y167.91116751269038 I0.06598984771573604 J1.2106598984771573
G2 X331.66243654822335 Y168.0989847715736 I0.9111675126903553 J2.0380710659898478
G2 X331.14720812182736 Y168.48477157360406 I3.479695431472081 J5.15736040609137
G2 X330.8604060913706 Y168.73857868020306 I5.7005076142131985 J6.809644670050762
G2 X330.2741116751269 Y169.2817258883249 I26.104060913705585 J28.591370558375637
G3 X329.6395939086295 Y169.86802030456855 I-19.038071065989847 J-20.00761421319797
G3 X329.39340101522845 Y170.06852791878174 I-2.467005076142132 J-2.7614213197969546
G3 X328.0304568527919 Y170.89593908629442 I-4.837563451776649 J-6.446700507614214
G3 X327.0583756345178 Y171.18527918781726 I-1.4010152284263961 J-2.9340101522842637
G3 X326.4416243654822 Y171.13705583756345 I-0.1979695431472081 J-1.484771573604061
G3 X326.06598984771574 Y170.89593908629442 I0.2182741116751269 J-0.7538071065989848
G3 X325.83502538071065 Y170.4035532994924 I0.7791878172588833 J-0.6700507614213198
G3 X325.7994923857868 Y169.3756345177665 I3.6218274111675126 J-0.6345177664974619
G3 X326.11928934010155 Y168.5203045685279 I1.8451776649746194 J0.20050761421319796
G3 X327.10406091370555 Y167.48730964467003 I3.738578680203046 J2.5812182741116754
G3 X327.81472081218277 Y167.01015228426397 I4.302030456852791 J5.644670050761421
G3 X329.29187817258884 Y166.20558375634516 I13.771573604060913 J23.492385786802032
G2 X329.9467005076142 Y165.86294416243652 I-14.6497461928934 J-28.941624365482234
G2 X330.17005076142135 Y165.73604060913706 I-1.8451776649746194 J-3.446700507614213
G2 X330.4695431472081 Y165.49238578680203 I-0.8426395939086294 J-1.352791878172589
G2 X330.51015228426394 Y165.38324873096445 I-0.10152284263959391 J-0.09898477157360405
G2 X330.4263959390863 Y164.3984771573604 I-20.413705583756343 J1.236040609137056
G2 X330.33756345177665 Y163.80710659898477 I-7.428934010152284 J0.8121827411167513
G2 X330.18781725888323 Y163.23096446700507 I-4.413705583756345 J0.8426395939086294
G2 X330.03299492385787 Y162.89340101522842 I-1.6751269035532994 J0.5583756345177665
G2 X329.8197969543147 Y162.6243654822335 I-1.0685279187817258 J0.6294416243654822
G2 X329.55583756345175 Y162.43908629441623 I-0.7614213197969544 J0.799492385786802
G2 X329.3071065989848 Y162.34263959390861 I-0.6269035532994924 J1.2436548223350254
G2 X328.8680203045686 Y162.24365482233503 I-1.0862944162436547 J3.83502538071066
G3 X328.50253807106594 Y162.10659898477158 I0.16243654822335027 J-0.9923857868020304
G3 X328.25888324873097 Y161.86802030456852 I0.4035532994923858 J-0.6548223350253807
G3 X328.1319796954315 Y161.56852791878174 I0.817258883248731 J-0.5253807106598986
G3 X328.07614213197974 Y161.0964467005076 I2 J-0.47969543147208127
G3 X328.1700507614213 Y160.26649746192896 I3.5761421319796955 J-0.012690355329949238
G3 X328.61675126903555 Y158.7969543147208 I11.705583756345177 J2.7563451776649743
G3 X329.34010152284264 Y157.11167512690355 I18.289340101522843 J6.8604060913705585
G3 X330.8324873096447 Y154.24365482233503 I54.477157360406096 J26.505076142131976
G2 X330.95939086294413 Y154.01522842639594 I-128.7994923857868 J-71.40355329949239
G2 X331.005076142132 Y153.9289340101523 I-17.878172588832488 J-9.870558375634516
G2 X332.0456852791878 Y151.69543147208122 I-16.931472081218274 J-9.243654822335026
G2 X332.4238578680203 Y150.29441624365484 I-6.238578680203045 J-2.434010152284264
G2 X332.45939086294413 Y149.48477157360406 I-3.659898477157361 J-0.5710659898477157
G2 X332.33756345177665 Y148.98223350253807 I-1.512690355329949 J0.09644670050761422
G2 X332.01015228426394 Y148.56091370558377 I-0.9720812182741116 J0.4213197969543147
G2 X331.4695431472081 Y148.31725888324874 I-0.7944162436548223 J1.0355329949238579
G2 X330.74111675126903 Y148.34010152284264 I-0.3147208121827411 J1.5913705583756346
G2 X329.7131979695431 Y148.78172588832487 I0.9695431472081218 J3.6700507614213196
G2 X328.9238578680203 Y149.36294416243655 I3.2436548223350252 J5.246192893401015
G2 X327.93401015228426 Y150.3223350253807 I7.956852791878173 J9.200507614213198
G2 X327.18527918781723 Y151.19543147208122 I11.360406091370558 J10.464467005076141
G2 X326.4568527918782 Y152.18527918781726 I13.779187817258883 J10.913705583756347
G2 X325.8807106598985 Y153.09137055837564 I12.842639593908629 J8.786802030456853
G2 X325.61421319796955 Y153.61928934010152 I4.065989847715736 J2.3857868020304567
G3 X325.5482233502538 Y153.74365482233503 I-0.7766497461928934 J-0.33248730964467005
G3 X325.2385786802031 Y154.2030456852792 I-10.875634517766496 J-7.015228426395939
G3 X324.94416243654825 Y154.61167512690355 I-23.393401015228427 J-16.545685279187815
G3 X324.4035532994924 Y155.34010152284264 I-74.18020304568527 J-54.45685279187817
G3 X323.71065989847716 Y156.25634517766497 I-118.15482233502537 J-88.54060913705584
G3 X321.7157360406091 Y158.86802030456852 I-958.263959390863 J-729.8071065989848
G2 X316.3071065989848 Y166.01269035532994 I656.6979695431472 J502.97208121827407
G2 X313.96446700507613 Y169.22081218274113 I130.03299492385787 J97.3756345177665
G2 X313.3756345177665 Y170.1751269035533 I7.01015228426396 J4.987309644670051
G2 X312.7766497461929 Y171.45939086294416 I12.129441624365482 J6.436548223350254
G2 X312.48730964467006 Y172.2284263959391 I14.842639593908629 J6.00761421319797
G2 X312.03553299492387 Y173.5989847715736 I46.692893401015226 J16.16243654822335
G3 X311.8248730964467 Y174.25888324873097 I-58.502538071065985 J-18.35532994923858
G3 X311.7335025380711 Y174.52284263959393 I-9.464467005076143 J-3.086294416243655
G3 X311.56852791878174 Y174.93908629441623 I-5.723350253807107 J-2.045685279187817
G3 X311.45939086294413 Y175.14213197969542 I-1.4619289340101524 J-0.6472081218274112
G3 X311.29441624365484 Y175.3223350253807 I-0.5939086294416244 J-0.3730964467005076
G3 X311.1725888324873 Y175.36294416243658 I-0.11421319796954314 J-0.14974619289340102
G3 X311.04060913705587 Y175.31472081218277 I0.007614213197969543 J-0.22081218274111675
G3 X310.83502538071065 Y175.08883248730965 I0.6573604060913706 J-0.8121827411167513
G3 X310.65736040609136 Y174.56345177664974 I0.8604060913705585 J-0.5862944162436547
G3 X310.751269035533 Y173.61928934010152 I3.0126903553299496 J-0.1700507614213198
G3 X311.0482233502538 Y172.7741116751269 I5.573604060913706 J1.4746192893401013
G3 X311.7208121827411 Y171.41878172588832 I14.972081218274111 J6.588832487309645
G3 X312.3705583756345 Y170.31725888324874 I22.35532994923858 J12.418781725888326
G3 X313.43908629441626 Y168.66243654822335 I51.59898477157361 J32.14213197969543
G3 X314.10913705583755 Y167.6751269035533 I70.06091370558376 J46.857868020304565
G3 X315.5989847715736 Y165.52791878172587 I333.2284263959391 J229.75888324873097
G2 X315.6649746192893 Y165.43401015228426 I-8011.850253807106 J-5600.814720812183
G2 X315.7005076142132 Y165.38578680203045 I-2011.0532994923858 J-1405.8223350253807
G3 X316.18781725888323 Y164.68781725888323 I1060.730964467005 J741.4492385786803
G3 X317.1776649746193 Y163.2741116751269 I4352.294416243655 J3046.51269035533
G2 X319.9441624365482 Y159.30964467005077 I-1368.8401015228428 J-958.8223350253807
G2 X320.98730964467 Y157.7994923857868 I-197.53807106598984 J-137.51776649746193
G2 X321.8096446700508 Y156.58883248730965 I-125.38832487309645 J-85.87817258883248
G2 X322.25380710659897 Y155.91116751269035 I-38.71573604060914 J-25.97208121827411
G2 X322.49238578680206 Y155.53553299492387 I-22.69796954314721 J-14.66243654822335
G2 X322.6294416243655 Y155.30964467005074 I-8.17766497461929 J-5.093908629441625
G2 X322.76142131979697 Y155.06598984771574 I-4.065989847715736 J-2.380710659898477
G2 X322.79441624365484 Y154.98477157360406 I-0.4213197969543147 J-0.21573604060913704
G3 X323.25888324873097 Y153.64720812182742 I14.035532994923859 J4.111675126903553
G3 X324.6370558375634 Y150.39847715736042 I84.49238578680203 J33.923857868020306
G3 X325.4847715736041 Y148.53553299492387 I136.06598984771574 J60.857868020304565
G3 X327.2741116751269 Y144.71319796954316 I574.3020304568528 J266.39086294416245
G2 X328.28680203045684 Y142.55837563451777 I-621.997461928934 J-293.56598984771574
G2 X328.6421319796954 Y141.78934010152284 I-78.91370558375635 J-36.911167512690355
G2 X328.9162436548224 Y141.1776649746193 I-49.86294416243655 J-22.736040609137053
G2 X329.06345177664974 Y140.82994923857868 I-15.923857868020303 J-7.027918781725888
G2 X329.21319796954316 Y140.44416243654823 I-7.365482233502538 J-3.0609137055837565
G2 X329.2385786802031 Y140.33756345177665 I-0.5406091370558376 J-0.19289340101522845
G2 X329.2157360406091 Y139.69035532994926 I-1.7385786802030456 J-0.25888324873096447
G2 X328.989847715736 Y139.22842639593907 I-1.0786802030456852 J0.2436548223350254
G2 X328.6294416243655 Y138.93654822335026 I-0.9111675126903553 J0.7538071065989848
G2 X328.0989847715736 Y138.76142131979697 I-0.8020304568527918 J1.5228426395939088
G2 X326.93908629441626 Y138.87817258883248 I-0.3604060913705584 J2.238578680203046
G2 X326.1725888324873 Y139.48730964467006 I0.565989847715736 J1.50253807106599
G3 X324.27918781725884 Y141.98984771573603 I-22.114213197969544 J-14.774111675126903
G3 X322.1167512690355 Y144.23604060913706 I-19.95939086294416 J-17.053299492385786
G3 X319.8071065989848 Y146.11928934010152 I-16.63705583756345 J-18.04060913705584
G3 X317.61928934010155 Y147.46954314720813 I-10.65482233502538 J-14.81472081218274
G3 X316.992385786802 Y147.71065989847716 I-1.368020304568528 J-2.6091370558375635
G3 X316.48730964467006 Y147.76142131979694 I-0.41878172588832485 J-1.6167512690355328
G3 X316.0532994923858 Y147.67258883248732 I0.07614213197969544 J-1.4796954314720812
G3 X315.6269035532995 Y147.4467005076142 I0.6065989847715736 J-1.652284263959391
G3 X315.3248730964467 Y147.18274111675126 I1.3096446700507614 J-1.8096446700507616
G3 X314.9720812182741 Y146.76142131979697 I2.9822335025380706 J-2.8553299492385786
G3 X314.78680203045684 Y146.49238578680203 I4.253807106598985 J-3.1091370558375635
G3 X314.4492385786802 Y145.9467005076142 I17.269035532994923 J-11.050761421319796
G2 X314.0939086294416 Y145.37817258883248 I-12.469543147208121 J7.439086294416244
G2 X313.93654822335026 Y145.17005076142132 I-1.8096446700507616 J1.1954314720812182
G2 X313.6319796954315 Y144.91878172588832 I-0.8654822335025381 J0.7335025380710659
G2 X313.4060913705584 Y144.86802030456852 I-0.19289340101522845 J0.3401015228426396
G2 X312.3553299492386 Y145.14213197969542 I0.2639593908629442 J3.1725888324873095
G2 X311.88832487309645 Y145.55583756345177 I0.4365482233502538 J0.9619289340101522
G2 X311.7741116751269 Y145.81218274111674 I1.0050761421319796 J0.6091370558375635
G2 X311.6928934010152 Y146.1751269035533 I2.00253807106599 J0.6319796954314721
G2 X311.6725888324873 Y146.4035532994924 I2.8096446700507616 J0.3629441624365482
G2 X311.65989847715736 Y146.9035532994924 I13.553299492385786 J0.6446700507614213
G3 X311.6395939086295 Y147.49238578680203 I-13.530456852791879 J-0.1446700507614213
G3 X311.61167512690355 Y147.79187817258884 I-3.568527918781726 J-0.19289340101522845
G3 X311.5 Y148.28426395939087 I-2.9771573604060912 J-0.416243654822335
G3 X311.3299492385787 Y148.6776649746193 I-2.068527918781726 J-0.6548223350253807
G2 X310.3604060913706 Y150.53299492385787 I40.69543147208122 J22.451776649746193
G2 X308.79695431472084 Y153.8020304568528 I125.03553299492387 J61.81218274111675
G3 X307.9543147208122 Y155.5989847715736 I-173.01015228426397 J-80.00507614213198
G3 X307.5507614213198 Y156.4263959390863 I-36.91370558375635 J-17.54060913705584
G2 X307.38832487309645 Y156.78426395939087 I4.230964467005077 J2.1294416243654823
G2 X306.9111675126903 Y158.01015228426397 I49.65228426395939 J20.022842639593907
G3 X306.15736040609136 Y159.9238578680203 I-58.62690355329949 J-21.98223350253807
G3 X305.751269035533 Y160.8248730964467 I-13.411167512690357 J-5.538071065989848
G3 X305.3680203045685 Y161.53045685279187 I-9.789340101522843 J-4.847715736040609
G3 X305.0558375634518 Y162 I-4.624365482233502 J-2.7309644670050757
G3 X304.6319796954315 Y162.47461928934013 I-2.8223350253807107 J-2.093908629441624
G3 X304.2969543147208 Y162.70812182741116 I-0.9746192893401016 J-1.0431472081218274
G3 X303.84517766497464 Y162.77918781725887 I-0.3401015228426396 J-0.6776649746192893
G3 X303.4111675126903 Y162.57360406091368 I0.12436548223350254 J-0.8223350253807106
G3 X303.1954314720812 Y162.33248730964465 I0.9974619289340102 J-1.1015228426395938
G3 X302.7766497461929 Y161.6802030456853 I6.916243654822335 J-4.906091370558376
G2 X302.5736040609137 Y161.34010152284264 I-12.908629441624367 J7.4873096446700504
G2 X302.47715736040607 Y161.19543147208122 I-2.4060913705583755 J1.482233502538071
G2 X302.2994923857868 Y160.9771573604061 I-1.5 J1.0558375634517767
G2 X302.17005076142135 Y160.87563451776649 I-0.4467005076142132 J0.4289340101522843
G2 X301.997461928934 Y160.8223350253807 I-0.1954314720812183 J0.32741116751269034
G2 X301.8248730964467 Y160.85532994923858 I-0.020304568527918784 J0.35786802030456855
G2 X301.65736040609136 Y160.9746192893401 I0.24873096446700507 J0.5355329949238579
G2 X301.4162436548223 Y161.26649746192894 I1.398477157360406 J1.3959390862944163
G3 X300.0583756345178 Y163.08121827411168 I-19.050761421319798 J-12.835025380710661
G3 X298.9162436548223 Y164.28426395939087 I-9.469543147208121 J-7.840101522842639
G3 X298.1497461928934 Y164.92131979695432 I-6.578680203045685 J-7.144670050761421
G3 X296.8604060913706 Y165.8197969543147 I-14.436548223350254 J-19.32994923857868
G2 X295.48984771573606 Y166.78680203045687 I12.238578680203045 J18.82994923857868
G2 X294.66243654822335 Y167.494923857868 I5.746192893401015 J7.543147208121828
G3 X292.9593908629442 Y169.11421319796955 I-133.52791878172587 J-138.78934010152284
G3 X291.8934010152284 Y170.0964467005076 I-50.20558375634518 J-53.4746192893401
G3 X290.26142131979697 Y171.50761421319797 I-36.09137055837564 J-39.99746192893401
G3 X289.1294416243655 Y172.39340101522842 I-15.296954314720812 J-18.38071065989848
G3 X287.6776649746193 Y173.33248730964468 I-8.50761421319797 J-11.573604060913706
G3 X286.8629441624365 Y173.6725888324873 I-1.8401015228426396 J-3.2614213197969546
G3 X286.38578680203045 Y173.74873096446703 I-0.5583756345177665 J-1.9619289340101522
G3 X286.06852791878174 Y173.70304568527916 I-0.03553299492385787 J-0.8934010152284264
G3 X285.79187817258884 Y173.53299492385787 I0.22081218274111675 J-0.6624365482233502
G3 X285.5837563451777 Y173.21065989847716 I0.6878172588832487 J-0.6776649746192893
G3 X285.5685279187817 Y173.002538071066 I0.31725888324873097 J-0.12690355329949238
G3 X285.7614213197969 Y172.48223350253807 I2.345177664974619 J0.5761421319796954
G3 X286.01522842639594 Y172.03807106598984 I4.723350253807107 J2.4060913705583755
G3 X286.51522842639594 Y171.30203045685278 I13.467005076142131 J8.586294416243655
G3 X287.18274111675123 Y170.41624365482235 I20.02030456852792 J14.393401015228427
G3 X288.9162436548223 Y168.25888324873097 I120.67766497461929 J95.27157360406092
G2 X290.0304568527919 Y166.89086294416242 I-174.4340101522843 J-142.88071065989845
G2 X290.497461928934 Y166.29949238578678 I-31.974619289340104 J-25.77664974619289
G2 X291.23604060913704 Y165.2969543147208 I-19.596446700507613 J-15.213197969543145
G2 X291.53299492385787 Y164.81725888324874 I-4.1725888324873095 J-2.916243654822335
G2 X291.7969543147208 Y164.06091370558374 I-2.1928934010152283 J-1.1954314720812182
G2 X291.74619289340103 Y163.61675126903552 I-0.7614213197969544 J-0.13451776649746194
G2 X291.50761421319794 Y163.32741116751268 I-0.6192893401015229 J0.2690355329949239
G2 X291.02030456852793 Y163.1218274111675 I-0.7538071065989848 J1.1065989847715736
G2 X290.53553299492387 Y163.07868020304568 I-0.4314720812182741 J2.1269035532994924
G2 X289.9543147208122 Y163.14720812182742 I0.07614213197969544 J3.1218274111675126
G2 X289.4213197969543 Y163.3223350253807 I0.5786802030456852 J2.687817258883249
G2 X289.1472081218274 Y163.50507614213197 I0.3857868020304569 J0.8705583756345179
G2 X287.4238578680203 Y165.19796954314722 I76.86802030456853 J80.01015228426397
G2 X283.84517766497464 Y168.8248730964467 I350.010152284264 J348.79949238578683
G2 X280.5761421319797 Y172.2005076142132 I418.3020304568528 J408.34517766497464
G2 X279.1370558375635 Y173.7258883248731 I83.89593908629442 J80.59390862944163
G2 X278.88578680203045 Y174 I33.31218274111675 J30.85279187817259
G2 X278.3020304568528 Y174.64213197969542 I180.80964467005074 J164.71319796954316
G3 X275.7715736040609 Y177.33502538071065 I-71.89593908629442 J-65.03045685279189
G3 X274.3984771573604 Y178.63959390862945 I-18.266497461928935 J-17.83248730964467
G3 X273.1979695431472 Y179.61928934010155 I-13.149746192893401 J-14.901015228426395
G3 X272.26142131979697 Y180.248730964467 I-6.347715736040609 J-8.434010152284264
G3 X271.1015228426396 Y180.80710659898477 I-3.7360406091370555 J-6.256345177664975
G3 X270.24619289340103 Y181.01015228426394 I-1.2005076142131978 J-3.1751269035533
G2 X270.10913705583755 Y181.06345177664974 I0.027918781725888325 J0.27411167512690354
G2 X269.88324873096445 Y181.28172588832487 I0.7563451776649746 J1.015228426395939
G2 X269.71319796954316 Y181.51776649746193 I1.9720812182741119 J1.5964467005076142
G2 X269.46446700507613 Y181.93654822335023 I6.032994923857869 J3.83248730964467
G2 X269.1903553299493 Y182.47969543147207 I9.530456852791879 J5.180203045685278
G2 X268.55583756345175 Y183.86294416243655 I61.15736040609137 J28.926395939086294
G3 X267.8984771573604 Y185.28680203045684 I-54.40862944162436 J-24.251269035532992
G3 X267.6395939086294 Y185.77918781725887 I-6.748730964467004 J-3.223350253807107
G3 X267.4010152284264 Y186.14974619289342 I-3.659898477157361 J-2.093908629441624
G3 X267.25888324873097 Y186.30710659898477 I-0.7944162436548223 J-0.5710659898477157
G3 X267.0837563451777 Y186.38578680203045 I-0.2081218274111675 J-0.23350253807106597
G3 X266.96192893401013 Y186.33756345177665 I-0.015228426395939087 J-0.1446700507614213
G1 X266.9441624365482 Y186.33248730964468
G2 X266.8629441624365 Y186.34517766497464 I0.030456852791878174 J0.4289340101522843
G2 X266.7868020304569 Y186.36802030456852 I0.3020304568527919 J1.134517766497462
G2 X266.6370558375635 Y186.42131979695432 I1.469543147208122 J4.2944162436548226
G2 X266.4492385786802 Y186.497461928934 I2.7944162436548226 J7.322335025380711
G2 X265.8654822335025 Y186.74111675126903 I28.931472081218274 J70.2994923857868
G3 X263.8274111675127 Y187.55583756345177 I-23.941624365482234 J-56.8248730964467
G3 X262.6421319796954 Y187.96446700507616 I-7.144670050761421 J-18.799492385786802
G3 X261.6446700507614 Y188.23857868020303 I-4.771573604060913 J-15.385786802030456
G3 X260.88832487309645 Y188.38832487309645 I-2.098984771573604 J-8.708121827411167
G3 X259.994923857868 Y188.45939086294413 I-0.9365482233502538 J-6.182741116751269
G3 X259.4010152284264 Y188.39847715736042 I-0.017766497461928935 J-2.763959390862944
G2 X259.1903553299493 Y188.38071065989848 I-0.16751269035532995 J0.7918781725888324
G2 X258.74111675126903 Y188.43401015228426 I0.1954314720812183 J3.6878172588832485
G2 X258.46700507614213 Y188.48730964467006 I1.1116751269035532 J6.261421319796955
G2 X257.79187817258884 Y188.64467005076142 I8.49746192893401 J38.0736040609137
G3 X256.9086294416244 Y188.84771573604064 I-9.654822335025381 J-39.90355329949239
G3 X256.4543147208122 Y188.93654822335026 I-2.302030456852792 J-10.530456852791879
G3 X255.6725888324873 Y189.03553299492387 I-1.4314720812182742 J-8.223350253807107
G3 X255.1243654822335 Y189.04060913705587 I-0.3147208121827411 J-4.030456852791878
G3 X254.38832487309642 Y188.87055837563452 I0.12690355329949238 J-2.220812182741117
G3 X253.70050761421322 Y188.43908629441626 I0.9974619289340102 J-2.3604060913705585
G3 X253.24619289340103 Y187.93401015228426 I1.8197969543147208 J-2.0862944162436547
G3 X253.08121827411168 Y187.5482233502538 I0.868020304568528 J-0.6015228426395939
G3 X253.1015228426396 Y187.26395939086296 I0.49492385786802034 J-0.10406091370558375
G3 X253.37817258883248 Y186.76903553299493 I1.8730964467005076 J0.7131979695431472
G3 X253.71065989847716 Y186.38324873096448 I3.1370558375634516 J2.3756345177664975
G3 X254.31218274111674 Y185.8197969543147 I7.312182741116752 J7.197969543147208
G3 X255.09137055837562 Y185.19035532994923 I9.746192893401016 J11.274111675126903
G3 X256.7309644670051 Y184 I36.5507614213198 J48.525380710659896
G2 X257.18274111675123 Y183.6802030456853 I-57.890862944162436 J-82.43908629441623
G2 X257.3451776649746 Y183.56091370558374 I-7.685279187817259 J-10.81725888324873
G2 X257.5989847715736 Y183.36548223350252 I-3.802030456852792 J-5.182741116751269
G2 X257.66497461928935 Y183.3020304568528 I-0.33248730964467005 J-0.4111675126903553
G3 X258.6725888324873 Y182.42385786802032 I3.6116751269035534 J3.126903553299493
G3 X260.7335025380711 Y181.30456852791878 I8.00507614213198 J12.31218274111675
G3 X261.9314720812183 Y180.8223350253807 I8.213197969543147 J18.558375634517766
G3 X263.7309644670051 Y180.2005076142132 I15.256345177664974 J41.398477157360404
G2 X263.93908629441626 Y180.13451776649745 I-27.596446700507613 J-86.16751269035532
G2 X264.01776649746193 Y180.10913705583758 I-3.8781725888324874 J-12.00507614213198
G2 X265.0583756345178 Y179.65989847715736 I-1.9923857868020303 J-6.032994923857869
G2 X265.7005076142132 Y179.1954314720812 I-1.4898477157360408 J-2.7436548223350252
G2 X266.11421319796955 Y178.6802030456853 I-1.614213197969543 J-1.7233502538071066
G2 X266.33502538071065 Y178.13197969543148 I-1.6269035532994924 J-0.9720812182741116
G2 X266.38578680203045 Y177.66751269035535 I-1.9644670050761421 J-0.44923857868020306
G2 X266.3274111675127 Y177.12182741116752 I-2.7588832487309647 J0.022842639593908632
G2 X266.24873096446703 Y176.8223350253807 I-3.035532994923858 J0.6370558375634517
G2 X266.0862944162437 Y176.36294416243655 I-7.180203045685279 J2.2791878172588835
G3 X266.01522842639594 Y176.17005076142132 I5.223350253807107 J-2.0380710659898478
G3 X266 Y176.11928934010152 I0.3680203045685279 J-0.12690355329949238
G3 X266.01269035532994 Y175.4543147208122 I1.5380710659898478 J-0.3071065989847716
G3 X266.4137055837563 Y174.35532994923858 I4.738578680203045 J1.1116751269035532
G3 X266.9416243654822 Y173.45939086294413 I7.50761421319797 J3.8248730964467006
G3 X267.88578680203045 Y172.1802030456853 I16.246192893401016 J10.98984771573604
G3 X269.15482233502536 Y170.7081218274112 I21.390862944162436 J17.14720812182741
G3 X271.9187817258883 Y167.8223350253807 I84.98223350253808 J78.63959390862944
G2 X272.8223350253807 Y166.9035532994924 I-138.04060913705584 J-136.87563451776649
G2 X273.1649746192893 Y166.5482233502538 I-20.30964467005076 J-19.873096446700508
G2 X273.6954314720812 Y165.95685279187816 I-11.058375634517768 J-10.449238578680202
G2 X273.8705583756345 Y165.7182741116751 I-1.6116751269035534 J-1.3705583756345177
G3 X274.05583756345175 Y165.43147208121826 I41.61167512690355 J26.383248730964468
G3 X274.6446700507614 Y164.51776649746193 I417.6370558375635 J268.88071065989845
G2 X276.4187817258883 Y161.748730964467 I-347.5862944162436 J-224.85786802030458
G2 X277.32994923857865 Y160.29187817258884 I-95.4010152284264 J-60.64720812182741
G2 X278.06091370558374 Y159.07868020304568 I-70.49238578680203 J-43.31979695431472
G2 X278.5253807106599 Y158.26903553299493 I-30.936548223350254 J-18.291878172588834
G2 X279.0279187817259 Y157.30710659898477 I-17.6243654822335 J-9.812182741116752
G2 X279.20050761421317 Y156.88832487309645 I-3.129441624365482 J-1.5279187817258881
G2 X279.21319796954316 Y156.45939086294416 I-0.7030456852791878 J-0.23604060913705582
G2 X278.97715736040607 Y156.0685279187817 I-0.8020304568527918 J0.2182741116751269
G2 X278.6269035532995 Y155.8223350253807 I-1.032994923857868 J1.1065989847715736
G2 X277.9619289340102 Y155.55329949238578 I-1.9213197969543148 J3.802030456852792
G2 X277.11928934010155 Y155.35279187817258 I-1.9796954314720814 J6.403553299492386
G2 X275.507614213198 Y155.13197969543148 I-3.9873096446700504 J23.210659898477157
G3 X275.18527918781723 Y155.0989847715736 I2.5253807106598987 J-24.88578680203046
G3 X275.10913705583755 Y155.08629441624365 I0.16243654822335027 J-1.4162436548223352
G2 X274.2994923857868 Y155.0989847715736 I-0.3756345177664975 J2.205583756345178
G2 X273.46700507614213 Y155.41370558375635 I0.5279187817258884 J2.657360406091371
G2 X273.0228426395939 Y155.72081218274113 I1.7182741116751268 J2.9619289340101522
G2 X272.23350253807104 Y156.41878172588832 I8.225888324873097 J10.088832487309645
G3 X271.7284263959391 Y156.88071065989848 I-9.649746192893401 J-10.048223350253807
G3 X271.51522842639594 Y157.04314720812184 I-1.4238578680203045 J-1.6370558375634516
G3 X270.5888324873097 Y157.59137055837562 I-5.248730964467006 J-7.804568527918781
G3 X270.01522842639594 Y157.8197969543147 I-1.4263959390862944 J-2.7588832487309647
G3 X269.52030456852793 Y157.87055837563452 I-0.3883248730964467 J-1.3629441624365481
G3 X269.31218274111677 Y157.76903553299493 I0.022842639593908632 J-0.30964467005076146
G3 X269.24111675126903 Y157.5685279187817 I0.2081218274111675 J-0.18781725888324874
G3 X269.34010152284264 Y157.19289340101523 I0.9340101522842639 J0.045685279187817264
G3 X269.5862944162436 Y156.8248730964467 I1.5862944162436547 J0.7969543147208122
G3 X270.0279187817259 Y156.4010152284264 I2.5837563451776653 J2.246192893401015
G2 X270.9746192893401 Y155.28934010152284 I-2.4086294416243654 J-3.00507614213198
G2 X272.0862944162436 Y152.75634517766497 I-12.068527918781726 J-6.819796954314721
G2 X272.3756345177665 Y151.7741116751269 I-16.388324873096447 J-5.32994923857868
G2 X272.56598984771574 Y150.92131979695432 I-12.190355329949238 J-3.1776649746192893
G2 X272.6269035532995 Y150.55329949238578 I-8.423857868020304 J-1.5812182741116751
G2 X272.6522842639594 Y150.31725888324874 I-3.4187817258883246 J-0.48984771573604063
G2 X272.6522842639594 Y150.08883248730965 I-1.5304568527918783 J-0.1116751269035533
G2 X272.6319796954315 Y150.04060913705584 I-0.07868020304568528 J0.005076142131979696
G2 X272.21319796954316 Y149.85532994923858 I-0.4314720812182741 J0.4035532994923858
G2 X271.46446700507613 Y150.01522842639594 I-0.03807106598984772 J1.6446700507614211
G2 X271.03553299492387 Y150.26142131979694 I1.4746192893401013 J3.0736040609137056
G2 X270.2030456852792 Y150.86294416243655 I8.256345177664974 J12.276649746192893
G3 X269.9187817258883 Y151.08121827411168 I-12.291878172588833 J-15.789340101522843
G3 X269.8197969543147 Y151.1497461928934 I-1.3426395939086295 J-1.7918781725888324
G3 X269.66243654822335 Y151.2309644670051 I-0.44923857868020306 J-0.6725888324873096
G3 X269.6269035532995 Y151.2258883248731 I-0.012690355329949238 J-0.03553299492385787
G3 X269.2766497461929 Y150.64467005076142 I0.6827411167512689 J-0.8071065989847716
G3 X269.2360406091371 Y149.4517766497462 I3.2005076142131976 J-0.7030456852791878
G3 X269.3984771573604 Y148.6979695431472 I6.230964467005076 J0.9416243654822334
G3 X269.9441624365482 Y146.92131979695432 I35.27157360406092 J9.855329949238579
G2 X270.28172588832484 Y145.87817258883248 I-58.09137055837564 J-19.456852791878173
G2 X270.42385786802026 Y145.39847715736042 I-12.048223350253807 J-3.7969543147208125
G2 X270.6015228426396 Y144.59390862944164 I-8.418781725888325 J-2.291878172588832
G2 X270.6472081218274 Y144.0964467005076 I-3.1700507614213196 J-0.5482233502538071
G2 X270.48730964467006 Y142.5203045685279 I-6.728426395939087 J-0.10406091370558375
G2 X270.03299492385787 Y141.3477157360406 I-4.149746192893401 J0.9289340101522843
G2 X269.5989847715736 Y140.73096446700507 I-3.434010152284264 J1.9543147208121827
G2 X268.7005076142132 Y139.7944162436548 I-8.860406091370558 J7.593908629441625
G3 X268.0761421319797 Y139.16751269035532 I8.81979695431472 J-9.446700507614214
G3 X267.8197969543147 Y138.8502538071066 I2.015228426395939 J-1.880710659898477
G3 X267.5304568527919 Y138.26395939086294 I1.8604060913705585 J-1.2791878172588833
G3 X267.4263959390863 Y137.63451776649748 I2.065989847715736 J-0.6675126903553299
G3 X267.5431472081218 Y136.52030456852793 I4.593908629441624 J-0.08121827411167513
G3 X268.0507614213198 Y134.9238578680203 I10.030456852791879 J2.312182741116751
G3 X268.4517766497462 Y134.04060913705584 I12.588832487309645 J5.167512690355331
G3 X269.26395939086296 Y132.48223350253807 I40.01522842639594 J19.868020304568528
G2 X269.6294416243655 Y131.7994923857868 I-46.05076142131979 J-25.17005076142132
G2 X269.75634517766497 Y131.5482233502538 I-6.129441624365483 J-3.2335025380710656
G2 X269.9187817258883 Y131.13705583756345 I-3.025380710659898 J-1.4416243654822336
G2 X269.93654822335026 Y130.99238578680203 I-0.3426395939086294 J-0.1116751269035533
G2 X269.81725888324877 Y130.4746192893401 I-2.045685279187817 J0.19289340101522845
G2 X269.53553299492387 Y129.9010152284264 I-2.8197969543147208 J1.0355329949238579
G2 X269.31218274111677 Y129.58883248730965 I-3.1395939086294415 J1.9949238578680204
G2 X268.8274111675127 Y129.01015228426394 I-11.203045685279188 J8.862944162436548
G3 X268.48223350253807 Y128.60406091370558 I12.18781725888325 J-10.736040609137056
G3 X268.34263959390864 Y128.41878172588832 I2.4060913705583755 J-1.982233502538071
G3 X268.1522842639594 Y128.09137055837564 I1.7461928934010151 J-1.233502538071066
G3 X268.0761421319797 Y127.8527918781726 I0.8604060913705585 J-0.4035532994923858
G3 X268.0710659898477 Y127.58883248730965 I0.8730964467005076 J-0.15228426395939088
G3 X268.1548223350254 Y127.246192893401 I1.5659898477157361 J0.20050761421319796
G3 X268.23604060913704 Y127.0482233502538 I2.010152284263959 J0.7335025380710659
G3 X268.44162436548226 Y126.6497461928934 I8.48984771573604 J4.101522842639594
G2 X268.6751269035533 Y126.18020304568529 I-6.228426395939087 J-3.383248730964467
G2 X268.74619289340103 Y125.9746192893401 I-1.1294416243654823 J-0.5101522842639594
G2 X268.75634517766497 Y125.63959390862945 I-0.7538071065989848 J-0.1903553299492386
G2 X268.6345177664975 Y125.38071065989847 I-0.5583756345177665 J0.10659898477157359
G2 X268.005076142132 Y125.04568527918781 I-0.7258883248730964 J0.6065989847715736
G2 X266.8324873096447 Y125.19796954314721 I-0.2614213197969543 J2.5812182741116754
G2 X265.79949238578683 Y125.73604060913706 I1.6802030456852792 J4.479695431472081
G2 X265.07106598984774 Y126.41116751269035 I1.9695431472081217 J2.8629441624365484
G3 X264.6928934010152 Y126.75888324873097 I-1.3756345177664975 J-1.116751269035533
G3 X264.2284263959391 Y126.98477157360406 I-1.0101522842639594 J-1.482233502538071
G3 X263.9187817258883 Y127.05837563451777 I-0.6319796954314721 J-1.9847715736040608
G3 X263.29695431472084 Y127.13197969543147 I-1.2741116751269035 J-8.083756345177665
G2 X262.71065989847716 Y127.2005076142132 I0.6243654822335025 J7.83756345177665
G2 X262.4416243654822 Y127.26395939086295 I0.2639593908629442 J1.6928934010152286
G2 X262.0507614213198 Y127.46700507614213 I0.42385786802030456 J1.3020304568527918
G2 X261.75634517766497 Y127.7741116751269 I0.7639593908629441 J1.0304568527918783
G2 X261.4187817258883 Y128.41370558375635 I2.6192893401015227 J1.784263959390863
G2 X261.21065989847716 Y129.1776649746193 I3.5558375634517763 J1.3807106598984773
G2 X261.15989847715736 Y129.6497461928934 I4.342639593908629 J0.7106598984771574
G2 X261.1370558375635 Y130.55837563451777 I16.098984771573605 J0.8705583756345179
G3 X261.1294416243655 Y131.1776649746193 I-20.106598984771576 J0.04822335025380711
G3 X261.11167512690355 Y131.46192893401013 I-4.299492385786802 J-0.1218274111675127
G3 X261.03299492385787 Y131.92385786802032 I-3.2436548223350252 J-0.3071065989847716
G3 X260.9187817258883 Y132.25380710659897 I-1.7766497461928934 J-0.4314720812182741
G3 X260.34771573604064 Y132.97969543147207 I-1.7817258883248732 J-0.817258883248731
G3 X259.4213197969543 Y133.4263959390863 I-1.49746192893401 J-1.9111675126903553
G3 X258.7791878172589 Y133.5228426395939 I-0.8350253807106599 J-3.431472081218274
G3 X257.38578680203045 Y133.53807106598987 I-0.8883248730964467 J-16.29187817258883
G2 X256.47969543147207 Y133.53045685279187 I-0.6319796954314721 J20.32233502538071
G2 X256.10913705583755 Y133.55583756345177 I0.045685279187817264 J3.4543147208121825
G2 X255.54060913705584 Y133.70812182741116 I0.24873096446700507 J2.0406091370558377
G2 X255.248730964467 Y133.9263959390863 I0.3147208121827411 J0.7284263959390863
G2 X254.5431472081218 Y135.10406091370558 I3.347715736040609 J2.8096446700507616
G2 X253.62944162436548 Y137.94670050761422 I19.195431472081218 J7.736040609137056
G2 X253.07614213197968 Y140.64467005076142 I36.558375634517766 J8.893401015228426
G2 X252.45939086294416 Y144.94416243654823 I92.34517766497461 J15.418781725888325
G3 X252.26142131979697 Y146.2005076142132 I-16.80710659898477 J-2.010152284263959
G3 X252.1269035532995 Y146.63451776649745 I-2.1370558375634516 J-0.41878172588832485
G3 X252.0304568527919 Y146.78680203045684 I-0.49746192893401014 J-0.21319796954314718
G3 X251.97461928934013 Y146.80456852791878 I-0.04060913705583757 J-0.03807106598984772
G3 X251.92385786802032 Y146.76395939086294 I0.020304568527918784 J-0.07868020304568528
G3 X251.84771573604058 Y146.5710659898477 I0.7309644670050762 J-0.4010152284263959
G3 X251.7715736040609 Y146.10913705583758 I2.548223350253807 J-0.6598984771573604
G3 X251.7335025380711 Y145.05837563451777 I13.276649746192895 J-1
G3 X251.7741116751269 Y143.8756345177665 I19.84771573604061 J0.07868020304568528
G3 X251.9035532994924 Y142.39593908629442 I31.15736040609137 J1.9847715736040608
G2 X252.2741116751269 Y138.24619289340103 I-93.5989847715736 J-10.446700507614214
G2 X252.48477157360406 Y133.7030456852792 I-111.85786802030456 J-7.49492385786802
G2 X252.51522842639594 Y131.751269035533 I-86.3527918781726 J-2.276649746192893
G2 X252.497461928934 Y130.40862944162436 I-40.827411167512686 J-0.15228426395939088
G2 X252.46954314720813 Y129.748730964467 I-25.814720812182742 J0.7538071065989848
G2 X252.43908629441623 Y129.3223350253807 I-10.82741116751269 J0.5939086294416244
G2 X252.38071065989845 Y128.89086294416242 I-5.81725888324873 J0.5482233502538071
G2 X252.33756345177665 Y128.7258883248731 I-0.8604060913705585 J0.14720812182741116
G2 X252.19543147208122 Y128.4238578680203 I-2.0761421319796955 J0.7868020304568528
G2 X251.88578680203048 Y127.9263959390863 I-5.906091370558376 J3.32994923857868
G2 X251.6751269035533 Y127.63197969543148 I-8.586294416243655 J5.873096446700508
G2 X251.16497461928932 Y126.9492385786802 I-46.90355329949239 J34.525380710659896
G3 X250.37563451776649 Y125.88071065989848 I41.6979695431472 J-31.64213197969543
G3 X249.97461928934013 Y125.29441624365482 I12.142131979695431 J-8.738578680203045
G3 X249.36802030456852 Y124.251269035533 I10.413705583756345 J-6.766497461928934
G3 X248.98984771573606 Y123.3984771573604 I6.586294416243654 J-3.4213197969543145
G3 X248.80456852791878 Y122.69289340101523 I3.548223350253807 J-1.3096446700507614
G3 X248.6015228426396 Y121.00507614213198 I20.393401015228427 J-3.299492385786802
G3 X248.53807106598987 Y119.997461928934 I34.05329949238579 J-2.6624365482233503
G3 X248.44670050761422 Y117.79441624365482 I163.2664974619289 J-7.928934010152284
G2 X248.38832487309645 Y116.26903553299492 I-187.76649746192896 J6.581218274111675
G2 X248.35532994923858 Y115.65482233502537 I-30.42639593908629 J1.3147208121827412
G2 X248.26142131979694 Y114.65482233502539 I-16.720812182741117 J1.0609137055837563
G2 X248.18527918781726 Y114.28680203045685 I-2.3299492385786804 J0.2893401015228426
G3 X247.9010152284264 Y113.09137055837564 I11.690355329949238 J-3.411167512690355
G3 X247.47715736040607 Y110.45939086294416 I56.423857868020306 J-10.441624365482234
G2 X247.21827411167513 Y108.69796954314721 I-91.28426395939087 J12.540609137055839
G2 X247.06345177664974 Y107.82994923857869 I-22.35532994923858 J3.5126903553299496
G2 X246.72081218274113 Y106.4010152284264 I-17.931472081218274 J3.5380710659898478
G2 X246.35532994923858 Y105.3274111675127 I-10.454314720812183 J2.9517766497461926
G2 X245.4035532994924 Y103.06091370558376 I-63.555837563451774 J25.357868020304572
G2 X244.40609137055839 Y100.90609137055837 I-58.44670050761422 J25.789340101522843
G2 X243.1548223350254 Y98.4771573604061 I-53.97969543147208 J26.258883248730967
G2 X241.8959390862944 Y96.29187817258882 I-44.85279187817259 J24.403553299492383
G2 X241.0253807106599 Y94.88071065989848 I-135.31218274111674 J82.53299492385787
G2 X239.06091370558374 Y91.75380710659897 I-667.4822335025381 J416.7690355329949
G3 X235.87817258883248 Y86.63705583756345 I404.0837563451777 J-254.9492385786802
G3 X234.67512690355332 Y84.60406091370558 I62.69543147208122 J-38.45939086294416
G3 X234.1827411167513 Y83.7284263959391 I90.31472081218274 J-51.49238578680203
G3 X233.32741116751268 Y82.18527918781726 I279.88578680203045 J-156.01015228426397
G2 X232.21319796954316 Y80.19035532994923 I-159.60406091370558 J87.81725888324873
G2 X231.66751269035532 Y79.25634517766498 I-35.34517766497462 J20.027918781725887
G2 X230.73096446700507 Y77.78426395939087 I-30.050761421319798 J18.098984771573605
G2 X229.81218274111677 Y76.49492385786802 I-23.931472081218274 J16.088832487309645
G2 X229.00253807106597 Y75.50253807106598 I-14.220812182741117 J10.738578680203046
G2 X227.20812182741116 Y73.51776649746193 I-58.62690355329949 J51.27918781725889
G3 X225.88071065989848 Y72.07360406091371 I72.65228426395939 J-68.09390862944163
G3 X225.28426395939084 Y71.38324873096447 I16.01015228426396 J-14.423857868020304
G3 X224.38071065989848 Y70.17766497461929 I12.241116751269034 J-10.124365482233502
G3 X223.86294416243655 Y69.28680203045685 I6.1395939086294415 J-4.16497461928934
G3 X223.1015228426396 Y67.41370558375634 I12.769035532994923 J-6.279187817258883
G3 X222.6015228426396 Y65.41116751269035 I14.058375634517766 J-4.5761421319796955
G3 X222.48730964467003 Y64.46954314720811 I8.276649746192893 J-1.4644670050761421
G3 X222.51269035532997 Y63.98223350253807 I2.2106598984771573 J-0.13705583756345177
G3 X222.58121827411168 Y63.73857868020305 I1.032994923857868 J0.1649746192893401
G3 X222.66243654822335 Y63.6243654822335 I0.29949238578680204 J0.12690355329949238
G3 X222.78426395939084 Y63.57106598984772 I0.14213197969543148 J0.15736040609137056
G3 X222.96446700507616 Y63.5989847715736 I0.03299492385786802 J0.3756345177664975
G3 X223.1548223350254 Y63.71827411167513 I-0.2639593908629442 J0.6345177664974619
G3 X223.4746192893401 Y64.0482233502538 I-1.916243654822335 J2.1802030456852792
G3 X223.7284263959391 Y64.38324873096447 I-4.040609137055838 J3.3401015228426396
G3 X224.10406091370558 Y64.9492385786802 I-11.124365482233502 J7.779187817258883
G3 X224.5431472081218 Y65.68274111675126 I-17.071065989847718 J10.710659898477157
G3 X225.63451776649745 Y67.63451776649747 I-119.71065989847716 J68.21319796954315
G2 X226.46700507614213 Y69.13705583756345 I202.41878172588832 J-111.02791878172589
G2 X226.89340101522842 Y69.88578680203045 I50.662436548223354 J-28.28172588832487
G2 X227.63959390862942 Y71.13197969543148 I39.27157360406091 J-22.695431472081218
G2 X228.20050761421322 Y71.98984771573605 I19.17005076142132 J-11.911167512690355
G3 X229.66243654822335 Y74.18527918781726 I-81.49746192893402 J55.93908629441624
G3 X230.96954314720813 Y76.26903553299492 I-72.04314720812182 J46.67005076142132
G3 X232.10913705583755 Y78.2005076142132 I-67.04314720812182 J40.753807106598984
G3 X233.06345177664977 Y79.94416243654823 I-53.58121827411168 J30.507614213197968
G3 X233.41370558375633 Y80.64213197969544 I-15.624365482233502 J8.241116751269036
G3 X234.09390862944161 Y82.12690355329948 I-69.83502538071066 J32.97715736040609
G2 X234.89086294416242 Y83.85786802030458 I73.79695431472081 J-32.95939086294416
G2 X235.36548223350255 Y84.80456852791878 I22.535532994923855 J-10.710659898477157
G2 X236.25888324873097 Y86.3502538071066 I20.97969543147208 J-11.083756345177665
G2 X237.21573604060916 Y87.74619289340102 I18.063451776649746 J-11.357868020304569
G2 X237.77918781725887 Y88.4492385786802 I10.652284263959391 J-7.941624365482234
G2 X238.63451776649748 Y89.40101522842639 I20.365482233502537 J-17.449238578680205
G2 X239.17258883248732 Y89.95939086294416 I25.987309644670052 J-24.51015228426396
G2 X240.36548223350255 Y91.15736040609137 I120.02791878172589 J-118.24619289340103
G3 X242.42131979695432 Y93.25380710659898 I-84.56091370558376 J84.98984771573603
G3 X243.4746192893401 Y94.40609137055837 I-24.52284263959391 J23.46954314720812
G3 X245.11675126903555 Y96.47208121827411 I-21.97715736040609 J19.1751269035533
G3 X246.29441624365484 Y98.29949238578679 I-16.01522842639594 J11.601522842639593
G2 X246.0989847715736 Y97.251269035533 I-86.12182741116752 J15.532994923857867
G2 X245.71573604060913 Y95.30456852791879 I-297.47715736040607 J57.40609137055838
G3 X245.4543147208122 Y93.96954314720813 I257.65989847715736 J-51.474619289340104
G3 X245.36294416243658 Y93.48730964467006 I33.434010152284266 J-6.5
G3 X245.24365482233503 Y92.71319796954315 I15.393401015228427 J-2.763959390862944
G3 X245.24111675126903 Y92.53299492385787 I0.8248730964467005 J-0.10659898477157359
G2 X245.2741116751269 Y91.45431472081219 I-8.903553299492387 J-0.8071065989847716
G2 X245.17005076142135 Y90.15736040609139 I-13.01269035532995 J0.3934010152284264
G2 X245.0482233502538 Y89.39340101522843 I-15.063451776649746 J1.9746192893401016
G2 X244.76649746192894 Y87.95431472081218 I-53.898477157360404 J9.870558375634516
G3 X244.55837563451777 Y86.92893401015228 I61.99492385786802 J-13.078680203045685
G3 X244.47461928934013 Y86.45685279187818 I13.071065989847718 J-2.532994923857868
G3 X244.38324873096448 Y85.67258883248732 I9.802030456852792 J-1.5355329949238579
G3 X244.37309644670052 Y85.11928934010152 I4.903553299492386 J-0.3730964467005076
G2 X244.2715736040609 Y83.98477157360405 I-4.525380710659899 J-0.16751269035532995
G2 X243.76649746192894 Y82.34263959390861 I-10.121827411167512 J2.2106598984771573
G2 X243.34517766497464 Y81.38832487309644 I-13.606598984771574 J5.4543147208121825
G2 X242.33248730964465 Y79.39086294416244 I-60.85532994923858 J29.571065989847718
G3 X241.60152284263958 Y77.97208121827411 I81.502538071066 J-42.994923857868024
G3 X241.2741116751269 Y77.29695431472082 I18.104060913705585 J-9.152284263959391
G3 X240.8020304568528 Y76.1497461928934 I13.670050761421319 J-6.286802030456853
G3 X240.56345177664977 Y75.33756345177665 I6.578680203045685 J-2.3908629441624365
G3 X240.1751269035533 Y73.251269035533 I23.700507614213198 J-5.4873096446700504
G3 X239.92385786802032 Y70.81472081218274 I32.1751269035533 J-4.543147208121827
G3 X239.86040609137058 Y69.40609137055837 I34.95177664974619 J-2.269035532994924
G3 X239.83248730964465 Y67.09390862944163 I94.36040609137055 J-2.3248730964467006
G2 X239.8274111675127 Y66.17005076142132 I-128.21573604060913 J0.015228426395939087
G2 X239.8223350253807 Y65.79441624365482 I-21.200507614213198 J0.15482233502538073
G2 X239.7944162436548 Y65.19035532994923 I-13.403553299492385 J0.3350253807106599
G2 X239.75634517766497 Y64.86040609137055 I-4.01015228426396 J0.2817258883248731
G2 X239.35279187817258 Y63.154822335025386 I-10.875634517766496 J1.6725888324873097
G2 X238.5228426395939 Y61.03299492385787 I-17.695431472081218 J5.710659898477157
G2 X237.9263959390863 Y59.84263959390863 I-20.34771573604061 J9.449238578680204
G2 X236.73857868020306 Y57.72335025380711 I-65.69796954314721 J35.39340101522843
G3 X236.03045685279187 Y56.47715736040609 I68.48223350253807 J-39.81979695431472
G3 X235.7664974619289 Y55.97715736040609 I10.784263959390863 J-6.0126903553299496
G3 X235.41370558375635 Y55.14213197969543 I6.380710659898478 J-3.182741116751269
G3 X235.32487309644668 Y54.71827411167513 I1.5456852791878173 J-0.5406091370558376
G2 X235.08121827411168 Y52.31218274111675 I-37.713197969543145 J2.6395939086294415
G2 X234.66243654822335 Y49.796954314720814 I-41.65989847715736 J5.609137055837563
G2 X233.9314720812183 Y46.837563451776646 I-31.253807106598984 J6.15736040609137
G2 X233.24873096446703 Y45.06345177664975 I-11.873096446700508 J3.5456852791878175
G2 X232.42131979695432 Y43.4746192893401 I-21.903553299492383 J10.413705583756345
G2 X231.29441624365484 Y41.631979695431475 I-30.65736040609137 J17.45939086294416
G2 X230.58629441624365 Y40.58375634517766 I-33.43654822335025 J21.855329949238577
G2 X229.2741116751269 Y38.743654822335024 I-104.79187817258882 J73.32994923857868
G3 X228.51015228426394 Y37.68274111675127 I122.10152284263958 J-88.69796954314721
G3 X228.19035532994923 Y37.223350253807105 I22.482233502538072 J-16.038071065989847
G3 X227.69543147208122 Y36.45939086294416 I15.434010152284262 J-10.543147208121828
G3 X227.42385786802032 Y35.977157360406096 I5.852791878172589 J-3.5939086294416245
G2 X226.58629441624367 Y34.5 I-16.378172588832488 J8.32233502538071
G2 X225.96700507614213 Y33.66497461928934 I-5.850253807106599 J3.6878172588832485
G2 X225.30964467005077 Y33.076142131979694 I-2.6015228426395938 J2.251269035532995
G2 X224.9568527918782 Y32.97208121827411 I-0.3375634517766497 J0.49238578680203043
G2 X224.7030456852792 Y33.11167512690355 I0.007614213197969543 J0.31725888324873097
G2 X224.53299492385787 Y33.598984771573605 I0.8248730964467005 J0.5609137055837563
G2 X224.56345177664974 Y34.2258883248731 I2.49492385786802 J0.1903553299492386
G2 X224.8223350253807 Y35.23096446700507 I6.733502538071066 J-1.1954314720812182
G2 X225.005076142132 Y35.74111675126903 I13.596446700507613 J-4.621827411167513
G2 X225.53299492385787 Y37.08629441624366 I95.29187817258884 J-36.45939086294416
G2 X225.86040609137055 Y37.901015228426395 I169.93908629441623 J-67.79187817258884
G2 X226.67005076142132 Y39.901015228426395 I1023.9568527918782 J-414.1903553299493
G3 X227.71827411167516 Y42.48984771573604 I-957.8071065989848 J389.6116751269035
G3 X228.19543147208122 Y43.68020304568528 I-202.26903553299493 J81.64213197969544
G3 X228.9796954314721 Y45.69796954314721 I-127.61167512690355 J50.63705583756345
G3 X229.31472081218274 Y46.63451776649747 I-27.027918781725887 J10.233502538071066
G3 X229.45939086294416 Y47.934010152284266 I-2.8705583756345177 J0.9746192893401016
G3 X229.05076142131978 Y49.09137055837563 I-2.6522842639593907 J-0.2868020304568528
G3 X228.58121827411168 Y49.66751269035533 I-2.8045685279187813 J-1.8045685279187818
G3 X227.58121827411168 Y50.535532994923855 I-7.461928934010152 J-7.596446700507614
G2 X227.26649746192894 Y50.78172588832487 I10.164974619289339 J13.31979695431472
G2 X227.1548223350254 Y50.878172588832484 I1.4441624365482233 J1.802030456852792
G2 X227 Y51.04822335025381 I0.8020304568527918 J0.8781725888324874
G2 X226.95939086294416 Y51.13959390862944 I0.17766497461928935 J0.1319796954314721
G3 X226.61167512690355 Y52.59390862944162 I-14.451776649746193 J-2.705583756345178
G3 X226.28934010152284 Y53.41370558375634 I-4.895939086294416 J-1.4441624365482233
G3 X225.87309644670052 Y54.005076142131976 I-2.1370558375634516 J-1.0583756345177666
G3 X225.5964467005076 Y54.13705583756345 I-0.31218274111675126 J-0.29949238578680204
G3 X225.3477157360406 Y54.04314720812182 I-0.022842639593908632 J-0.30964467005076146
G3 X225.08883248730965 Y53.61421319796954 I0.8071065989847716 J-0.7817258883248732
G3 X224.97461928934013 Y53.03299492385787 I2.3274111675126905 J-0.766497461928934
G3 X224.97715736040607 Y52.14467005076142 I5.5456852791878175 J-0.4213197969543147
G2 X224.93654822335026 Y50.53807106598985 I-7.309644670050761 J-0.616751269035533
G2 X224.31472081218274 Y47.27664974619289 I-31.11421319796954 J4.225888324873097
G2 X223.6827411167513 Y44.93654822335025 I-50.02030456852792 J12.284263959390863
G2 X223.21065989847716 Y43.54568527918782 I-18.126903553299492 J5.368020304568528
G2 X221.7969543147208 Y40.41370558375634 I-27.36040609137056 J10.47969543147208
G2 X220.5 Y38.37817258883249 I-12.80203045685279 J6.715736040609137
G3 X220.2005076142132 Y37.96700507614213 I10.875634517766496 J-8.271573604060913
G3 X220.08629441624365 Y37.786802030456855 I1.9314720812182742 J-1.3604060913705585
G3 X219.9467005076142 Y37.49238578680203 I1.652284263959391 J-0.9517766497461928
G3 X219.86548223350255 Y37.18781725888325 I1.6725888324873097 J-0.6142131979695432
G3 X219.73604060913704 Y36.289340101522846 I14.119289340101522 J-2.484771573604061
G3 X219.57106598984774 Y34.54314720812183 I53.52791878172589 J-5.964467005076141
G2 X219.4543147208122 Y33.23857868020304 I-62.873096446700515 J4.939086294416244
G2 X219.38071065989848 Y32.629441624365484 I-13.756345177664976 J1.368020304568528
G2 X219.18781725888326 Y31.63959390862944 I-10.47715736040609 J1.512690355329949
G2 X218.96700507614213 Y30.931472081218274 I-5.550761421319796 J1.352791878172589
G2 X218.58629441624367 Y30.159898477157363 I-4.563451776649746 J1.763959390862944
G2 X217.98223350253807 Y29.309644670050762 I-6.137055837563452 J3.720812182741117
G2 X217.5964467005076 Y28.875634517766496 I-6.098984771573605 J5.035532994923858
G2 X217.01015228426397 Y28.291878172588834 I-11.649746192893403 J11.154822335025381
G3 X216.79949238578678 Y28.088832487309645 I6.314720812182742 J-6.700507614213198
G3 X216.76649746192894 Y28.04822335025381 I0.2081218274111675 J-0.2081218274111675
G2 X215.6725888324873 Y26.779187817258887 I-6.555837563451776 J4.543147208121827
G2 X213.16497461928932 Y24.66243654822335 I-20.98477157360406 J22.32741116751269
G2 X211.7005076142132 Y23.604060913705585 I-26.31979695431472 J34.82233502538071
G2 X209.41116751269035 Y22.060913705583758 I-58.20812182741116 J84.01776649746193
G3 X208.89086294416245 Y21.71827411167513 I47.898477157360404 J-73.28934010152284
G3 X208.7715736040609 Y21.63959390862944 I2.5406091370558377 J-3.8274111675126905
G3 X207.50761421319797 Y20.728426395939085 I66.03807106598984 J-93.07360406091371
G3 X205.14213197969542 Y18.987309644670052 I239.1852791878173 J-327.53553299492387
G2 X201.58629441624367 Y16.406091370558375 I-130.3502538071066 J175.81218274111674
G2 X199.94416243654823 Y15.291878172588833 I-25.817258883248734 J36.32233502538071
G2 X197.1497461928934 Y13.675126903553299 I-18.121827411167512 J28.063451776649746
G2 X194.98477157360406 Y12.730964467005077 I-8.180203045685278 J15.842639593908629
G2 X193.2741116751269 Y12.177664974619288 I-9.794416243654823 J27.317258883248734
G2 X188.7715736040609 Y10.931472081218274 I-54.598984771573605 J188.23096446700507
G2 X187.0482233502538 Y10.482233502538072 I-61.75888324873096 J233.58121827411168
G2 X185.58883248730965 Y10.114213197969544 I-42.746192893401016 J166.63705583756348
G2 X184.1852791878173 Y9.776649746192893 I-23.662436548223347 J95.71065989847716
G2 X183.89086294416245 Y9.720812182741117 I-0.9492385786802031 J4.098984771573604
G2 X180.90862944162436 Y9.370558375634518 I-5.883248730964467 J37.18781725888325
G2 X176.3984771573604 Y9.142131979695431 I-6.550761421319797 J84.79187817258882
G2 X172.73857868020303 Y9.119289340101522 I-2.472081218274112 J102.92131979695432
G2 X170.8477157360406 Y9.205583756345177 I0.31725888324873097 J27.482233502538072
G2 X168.50507614213197 Y9.51522842639594 I1.8451776649746194 J22.885786802030456
G2 X161.9543147208122 Y10.855329949238579 I33.515228426395936 J180.73096446700507
G2 X159.2969543147208 Y11.467005076142131 I44.18781725888324 J197.8477157360406
G2 X157.23096446700507 Y11.977157360406093 I28.54314720812183 J120.18274111675127
G2 X156.2233502538071 Y12.241116751269034 I20.121827411167512 J78.67005076142132
G2 X155.56091370558374 Y12.426395939086294 I9.131979695431472 J33.878172588832484
G2 X154.87817258883248 Y12.63959390862944 I5.213197969543147 J17.941624365482234
G2 X154.64213197969545 Y12.730964467005077 I0.7335025380710659 J2.2081218274111674
G2 X149.21573604060913 Y15.266497461928934 I179.25380710659897 J390.992385786802
G2 X147.09390862944164 Y16.31979695431472 I28.85279187817259 J60.68781725888325
G2 X144.83756345177665 Y17.601522842639593 I16.253807106598984 J31.294416243654823
G2 X143.27157360406093 Y18.67766497461929 I9.936548223350254 J16.109137055837564
G2 X139.98223350253807 Y21.299492385786802 I64.81979695431473 J84.71065989847716
G2 X136.88071065989848 Y23.982233502538072 I64.751269035533 J78.04568527918781
G2 X135.28680203045684 Y25.46446700507614 I44.94670050761421 J49.92131979695431
G2 X134.2766497461929 Y26.482233502538072 I20.21065989847716 J21.03553299492386
G2 X133.251269035533 Y27.690355329949238 I11.01776649746193 J10.393401015228427
G2 X132.98477157360406 Y28.177664974619287 I1.4720812182741116 J1.1218274111675126
G2 X132.83502538071065 Y29.081218274111677 I2.33248730964467 J0.8527918781725887
G2 X133.0253807106599 Y30.251269035532996 I4.1725888324873095 J-0.08375634517766498
G2 X133.27918781725887 Y30.908629441624367 I5.309644670050762 J-1.6725888324873097
G2 X133.87055837563452 Y32.08375634517766 I17.616751269035532 J-8.116751269035532
G3 X134.10406091370558 Y32.51776649746193 I-26.710659898477157 J14.578680203045685
G3 X134.19289340101523 Y32.69543147208122 I-4.342639593908629 J2.2791878172588835
G3 X134.31218274111674 Y32.98984771573604 I-2.6472081218274113 J1.2563451776649746
G3 X134.3477157360406 Y33.14467005076142 I-0.6928934010152283 J0.24111675126903553
G3 X134.19796954314722 Y34.421319796954315 I-2.763959390862944 J0.32487309644670054
G3 X133.38832487309645 Y35.78172588832487 I-3.967005076142132 J-1.4441624365482233
G3 X132.69035532994923 Y36.45177664974619 I-4.530456852791878 J-4.022842639593909
G3 X131.16243654822335 Y37.598984771573605 I-14.969543147208121 J-18.32994923857868
G2 X130.43147208121826 Y38.119289340101524 I17.368020304568528 J25.17258883248731
G2 X130.16751269035532 Y38.329949238578685 I2.5736040609137056 J3.50507614213198
G2 X129.81218274111677 Y38.71573604060914 I1.4416243654822336 J1.6751269035532994
G2 X129.73096446700507 Y38.93654822335026 I0.3604060913705584 J0.25888324873096447
G3 X129.5507614213198 Y40.94923857868021 I-260.18781725888323 J-22.370558375634516
G3 X129.3197969543147 Y43.33502538071066 I-366.15228426395936 J-34.33502538071066
G3 X129.1522842639594 Y44.96700507614214 I-430.5253807106599 J-43.20304568527919
G3 X128.89593908629442 Y47.40609137055838 I-959.3451776649747 J-99.9517766497462
G3 X129.13705583756345 Y47.48730964467005 I-0.15736040609137056 J0.868020304568528
G3 X129.4035532994924 Y47.664974619289346 I-0.6116751269035533 J1.2030456852791878
G3 X129.54314720812184 Y47.799492385786806 I-1.1624365482233503 J1.3604060913705585
G3 X129.82741116751268 Y48.11675126903553 I-6.096446700507614 J5.730964467005077
G2 X130.31218274111674 Y48.619289340101524 I4.2360406091370555 J-3.596446700507614
G2 X130.5989847715736 Y48.82233502538071 I0.9416243654822334 J-1.0279187817258884
G3 X130.997461928934 Y49.09390862944163 I-1.0558375634517767 J1.987309644670051
G3 X131.2766497461929 Y49.39593908629441 I-1.0558375634517767 J1.2436548223350254
G3 X131.40862944162438 Y49.619289340101524 I-1.4086294416243654 J0.9974619289340102
G3 X131.64213197969542 Y50.1269035532995 I-7.058375634517766 J3.5304568527918785
G2 X132.07106598984774 Y51.015228426395936 I7.99746192893401 J-3.314720812182741
G2 X132.48984771573603 Y51.65482233502538 I4.558375634517767 J-2.530456852791878
G1 X132.48984771573603 Y51.65482233502538
G1 X132.49238578680203 Y51.65736040609137
G3 X132.97969543147207 Y52.307106598984774 I-34.50507614213198 J26.428934010152286
G3 X133.17005076142132 Y52.57868020304569 I-5.789340101522843 J4.266497461928934
G3 X133.43401015228426 Y53.02030456852792 I-4.477157360406092 J2.9898477157360404
G3 X133.61421319796955 Y53.40355329949239 I-3.2309644670050766 J1.7385786802030456
G3 X133.84010152284264 Y54.21573604060914 I-3.723350253807107 J1.4771573604060915
G3 X134.03807106598984 Y55.92639593908629 I-16.45431472081218 J2.766497461928934
G3 X133.93401015228426 Y57.80203045685279 I-7.873096446700507 J0.5
G3 X133.34517766497464 Y59.835025380710654 I-9.852791878172589 J-1.7461928934010151
G3 X132.25888324873097 Y61.695431472081225 I-7.065989847715736 J-2.8807106598984773
G3 X131.21827411167513 Y62.517766497461935 I-2.269035532994924 J-1.799492385786802
G2 X130.80964467005077 Y62.73096446700507 I2.3426395939086295 J5.00507614213198
G2 X130.2791878172589 Y63.05583756345178 I5.065989847715736 J8.81979695431472
G3 X129.96446700507613 Y63.251269035533 I-3.9238578680203045 J-5.9543147208121825
G3 X129.83502538071068 Y63.317258883248726 I-0.5532994923857868 J-0.9416243654822334
G3 X129.6243654822335 Y63.37309644670051 I-0.30456852791878175 J-0.7258883248730964
G3 X129.42131979695432 Y63.368020304568525 I-0.08121827411167513 J-0.6700507614213198
G3 X129.4543147208122 Y63.66751269035533 I-9.302030456852792 J1.1725888324873095
G3 X129.4746192893401 Y63.94162436548223 I-7.769035532994923 J0.7258883248730964
G3 X129.48477157360406 Y64.22081218274113 I-6.710659898477157 J0.3883248730964467
G3 X129.48223350253807 Y64.44923857868021 I-4.411167512690356 J0.07106598984771574
G3 X129.35279187817258 Y65.11167512690355 I-2.1395939086294415 J-0.07614213197969544
G3 X128.7944162436548 Y66.32233502538071 I-7.819796954314721 J-2.878172588832487
G3 X128.38324873096445 Y67 I-11.451776649746193 J-6.449238578680204
G3 X127.46700507614213 Y68.37817258883248 I-48.19543147208122 J-31.109137055837564
G2 X126.90862944162436 Y69.20558375634518 I54.79441624365482 J37.6497461928934
G2 X126.70050761421321 Y69.53045685279187 I8.266497461928935 J5.5
G2 X126.41116751269035 Y70.07868020304569 I4.380710659898478 J2.6751269035532994
G2 X126.35532994923858 Y70.29187817258884 I0.5913705583756345 J0.2690355329949239
G3 X126.12182741116752 Y71.25380710659898 I-3.2893401015228423 J-0.2817258883248731
G3 X125.23604060913705 Y73.04060913705584 I-12.436548223350254 J-5.058375634517766
